;FLAVOR:Marlin
;TIME:3932
;Filament used: 3.51921m
;Layer height: 0.2
;MINX:113.9
;MINY:71.9
;MINZ:0.2
;MAXX:171.1
;MAXY:121.1
;MAXZ:28.2
;TARGET_MACHINE.NAME:Creality Ender-3

;Generated with Cura_SteamEngine 5.12.1
M140 S60
M105
M190 S60
M104 S215
M105
M109 S215
; Ender 3 Custom Start G-code
G92 E0 ; Reset Extruder
G28 ; Home all axes
G1 Z2.0 F3000 ; Move Z Axis up little to prevent scratching of Heat Bed
G1 X0.1 Y20 Z0.3 F5000.0 ; Move to start position
G1 X0.1 Y200.0 Z0.3 F1500.0 E15 ; Draw the first line
G1 X0.4 Y200.0 Z0.3 F5000.0 ; Move to side a little
G1 X0.4 Y20 Z0.3 F1500.0 E30 ; Draw the second line
G92 E0 ; Reset Extruder
G1 Z2.0 F3000 ; Move Z Axis up little to prevent scratching of Heat Bed
G1 X5 Y20 Z0.3 F5000.0 ; Move over to prevent blob squish
M82 ;absolute extrusion mode
G92 E0
G92 E0
G1 F1500 E-6.5
;LAYER_COUNT:141
;LAYER:0
M107
G0 F3600 X114.659 Y73.312 Z0.2
;TYPE:SKIRT
G1 F1500 E0
G1 F1800 X115.04 Y72.892 E0.01886
G1 X115.484 Y72.534 E0.03783
G1 X115.977 Y72.253 E0.0567
G1 X116.509 Y72.052 E0.07562
G1 X117.066 Y71.938 E0.09453
G1 X117.74 Y71.901 E0.11698
G1 X166.845 Y71.9 E1.75022
G1 X167.543 Y71.91 E1.77344
G1 X168.14 Y71.97 E1.79339
G1 X168.69 Y72.116 E1.81232
G1 X169.154 Y72.318 E1.82915
G1 X169.635 Y72.62 E1.84804
G1 X170.108 Y73.039 E1.86906
G1 X170.463 Y73.481 E1.88791
G1 X170.746 Y73.975 E1.90685
G1 X170.947 Y74.506 E1.92573
G1 X171.062 Y75.063 E1.94465
G1 X171.099 Y75.74 E1.9672
G1 X171.1 Y116.814 E3.33333
G1 X171.09 Y117.541 E3.35751
G1 X171.03 Y118.138 E3.37747
G1 X170.884 Y118.687 E3.39636
G1 X170.653 Y119.207 E3.41529
G1 X170.344 Y119.683 E3.43416
G1 X169.962 Y120.107 E3.45314
G1 X169.571 Y120.427 E3.46995
G1 X169.028 Y120.745 E3.49088
G1 X168.557 Y120.929 E3.5077
G1 X167.949 Y121.061 E3.52839
G1 X167.505 Y121.098 E3.54321
G1 X118.155 Y121.1 E5.1846
G1 X117.457 Y121.09 E5.20781
G1 X116.86 Y121.03 E5.22777
G1 X116.31 Y120.884 E5.2467
G1 X115.846 Y120.682 E5.26353
G1 X115.365 Y120.38 E5.28242
G1 X114.892 Y119.961 E5.30344
G1 X114.537 Y119.519 E5.32229
G1 X114.254 Y119.025 E5.34123
G1 X114.053 Y118.494 E5.36011
G1 X113.946 Y118 E5.37692
G1 X113.901 Y117.245 E5.40208
G1 X113.9 Y76.12 E6.7699
G1 X113.91 Y75.455 E6.79202
G1 X113.971 Y74.858 E6.81198
G1 X114.117 Y74.308 E6.83091
G1 X114.319 Y73.844 E6.84774
G1 X114.659 Y73.312 E6.86874
G0 F3600 X114.958 Y73.578
G1 F1800 X115.294 Y73.201 E6.88554
G1 X115.685 Y72.88 E6.90236
G1 X116.122 Y72.626 E6.91917
G1 X116.593 Y72.443 E6.93598
G1 X117.088 Y72.337 E6.95282
G1 X117.74 Y72.301 E6.97453
G1 X166.839 Y72.3 E8.60757
G1 X167.537 Y72.31 E8.63079
G1 X168.04 Y72.357 E8.64759
G1 X168.53 Y72.483 E8.66442
G1 X168.994 Y72.685 E8.68125
G1 X169.42 Y72.957 E8.69806
G1 X169.798 Y73.292 E8.71486
G1 X170.118 Y73.683 E8.73167
G1 X170.373 Y74.12 E8.7485
G1 X170.556 Y74.591 E8.7653
G1 X170.663 Y75.085 E8.78212
G1 X170.699 Y75.74 E8.80393
G1 X170.7 Y116.808 E10.16986
G1 X170.69 Y117.535 E10.19404
G1 X170.643 Y118.038 E10.21085
G1 X170.517 Y118.528 E10.22767
G1 X170.316 Y118.992 E10.24449
G1 X170.044 Y119.418 E10.2613
G1 X169.709 Y119.797 E10.27813
G1 X169.318 Y120.117 E10.29493
G1 X168.882 Y120.372 E10.31173
G1 X168.411 Y120.556 E10.32855
G1 X167.916 Y120.662 E10.34539
G1 X167.472 Y120.699 E10.36021
G1 X118.161 Y120.7 E12.0003
G1 X117.463 Y120.69 E12.02351
G1 X116.96 Y120.643 E12.04032
G1 X116.47 Y120.517 E12.05714
G1 X116.006 Y120.315 E12.07398
G1 X115.58 Y120.043 E12.09079
G1 X115.202 Y119.708 E12.10759
G1 X114.882 Y119.317 E12.12439
G1 X114.627 Y118.88 E12.14122
G1 X114.444 Y118.409 E12.15802
G1 X114.337 Y117.915 E12.17484
G1 X114.301 Y117.245 E12.19715
G1 X114.3 Y76.126 E13.56478
G1 X114.31 Y75.461 E13.5869
G1 X114.358 Y74.958 E13.6037
G1 X114.484 Y74.468 E13.62053
G1 X114.686 Y74.004 E13.63736
G1 X114.958 Y73.578 E13.65417
G1 F1500 E7.15417
;MESH:candy dispenser/codex-sketch-to-code-roller-holder-short.stl
G0 F3600 X116.835 Y75.924
G0 X117.924 Y75.924
G0 X166.59 Y116.62
G0 X166.9 Y116.9
;TYPE:WALL-INNER
G1 F1500 E13.65417
G1 F1800 X166.9 Y76.1 E15.01119
G1 X118.1 Y76.1 E16.63428
G1 X118.1 Y116.9 E17.99129
G1 X166.9 Y116.9 E19.61439
G0 F3600 X167.3 Y117.3
;TYPE:WALL-OUTER
G1 F1800 X167.3 Y75.7 E20.99801
G1 X117.7 Y75.7 E22.64771
G1 X117.7 Y117.3 E24.03133
G1 X167.3 Y117.3 E25.68104
G0 F3600 X167.3 Y117.1
G0 X166.52 Y116.52
;TYPE:SKIN
G1 F1800 X118.48 Y116.52 E27.27885
G1 X118.48 Y76.48 E28.61059
G1 X166.52 Y76.48 E30.20841
G1 X166.52 Y116.52 E31.54014
G0 F3600 X166.058 Y76.68
G1 F1800 X166.32 Y76.942 E31.55247
G0 F3600 X166.32 Y77.507
G1 F1800 X165.493 Y76.68 E31.59137
G0 F3600 X164.927 Y76.68
G1 F1800 X166.32 Y78.073 E31.65689
G0 F3600 X166.32 Y78.639
G1 F1800 X164.361 Y76.68 E31.74903
G0 F3600 X163.796 Y76.68
G1 F1800 X166.32 Y79.204 E31.86776
G0 F3600 X166.32 Y79.77
G1 F1800 X163.23 Y76.68 E32.0131
G0 F3600 X162.664 Y76.68
G1 F1800 X166.32 Y80.336 E32.18507
G0 F3600 X166.32 Y80.902
G1 F1800 X162.099 Y76.68 E32.38363
G0 F3600 X161.533 Y76.68
G1 F1800 X166.32 Y81.467 E32.6088
G0 F3600 X166.32 Y82.033
G1 F1800 X160.967 Y76.68 E32.86059
G0 F3600 X160.402 Y76.68
G1 F1800 X166.32 Y82.599 E33.13898
G0 F3600 X166.32 Y83.164
G1 F1800 X159.836 Y76.68 E33.44396
G0 F3600 X159.27 Y76.68
G1 F1800 X166.32 Y83.73 E33.77557
G0 F3600 X166.32 Y84.296
G1 F1800 X158.704 Y76.68 E34.13381
G0 F3600 X158.139 Y76.68
G1 F1800 X166.32 Y84.861 E34.51862
G0 F3600 X166.32 Y85.427
G1 F1800 X157.573 Y76.68 E34.93005
G0 F3600 X157.007 Y76.68
G1 F1800 X166.32 Y85.993 E35.3681
G0 F3600 X166.32 Y86.558
G1 F1800 X156.442 Y76.68 E35.83273
G0 F3600 X155.876 Y76.68
G1 F1800 X166.32 Y87.124 E36.32399
G0 F3600 X166.32 Y87.69
G1 F1800 X155.31 Y76.68 E36.84186
G0 F3600 X154.745 Y76.68
G1 F1800 X166.32 Y88.255 E37.38632
G0 F3600 X166.32 Y88.821
G1 F1800 X154.179 Y76.68 E37.95739
G0 F3600 X153.613 Y76.68
G1 F1800 X166.32 Y89.387 E38.55509
G0 F3600 X166.32 Y89.952
G1 F1800 X153.048 Y76.68 E39.17936
G0 F3600 X152.482 Y76.68
G1 F1800 X166.32 Y90.518 E39.83026
G0 F3600 X166.32 Y91.084
G1 F1800 X151.916 Y76.68 E40.50778
G0 F3600 X151.351 Y76.68
G1 F1800 X166.32 Y91.65 E41.2119
G0 F3600 X166.32 Y92.215
G1 F1800 X150.785 Y76.68 E41.94262
G0 F3600 X150.219 Y76.68
G1 F1800 X166.32 Y92.781 E42.69996
G0 F3600 X166.32 Y93.347
G1 F1800 X149.653 Y76.68 E43.48393
G0 F3600 X149.088 Y76.68
G1 F1800 X166.32 Y93.912 E44.29447
G0 F3600 X166.32 Y94.478
G1 F1800 X148.522 Y76.68 E45.13163
G0 F3600 X147.956 Y76.68
G1 F1800 X166.32 Y95.044 E45.99542
G0 F3600 X166.32 Y95.609
G1 F1800 X147.391 Y76.68 E46.88578
G0 F3600 X146.825 Y76.68
G1 F1800 X166.32 Y96.175 E47.80276
G0 F3600 X166.32 Y96.741
G1 F1800 X146.259 Y76.68 E48.74637
G0 F3600 X145.694 Y76.68
G1 F1800 X166.32 Y97.306 E49.71655
G0 F3600 X166.32 Y97.872
G1 F1800 X145.128 Y76.68 E50.71336
G0 F3600 X144.562 Y76.68
G1 F1800 X166.32 Y98.438 E51.73679
G0 F3600 X166.32 Y99.003
G1 F1800 X143.997 Y76.68 E52.7868
G0 F3600 X143.431 Y76.68
G1 F1800 X166.32 Y99.569 E53.86343
G0 F3600 X166.32 Y100.135
G1 F1800 X142.865 Y76.68 E54.96668
G0 F3600 X142.3 Y76.68
G1 F1800 X166.32 Y100.7 E56.0965
G0 F3600 X166.32 Y101.266
G1 F1800 X141.734 Y76.68 E57.25295
G0 F3600 X141.168 Y76.68
G1 F1800 X166.32 Y101.832 E58.43603
G0 F3600 X166.32 Y102.398
G1 F1800 X140.603 Y76.68 E59.6457
G0 F3600 X140.037 Y76.68
G1 F1800 X166.32 Y102.963 E60.88197
G0 F3600 X166.32 Y103.529
G1 F1800 X139.471 Y76.68 E62.14487
G0 F3600 X138.905 Y76.68
G1 F1800 X166.32 Y104.095 E63.43438
G0 F3600 X166.32 Y104.66
G1 F1800 X138.34 Y76.68 E64.75048
G0 F3600 X137.774 Y76.68
G1 F1800 X166.32 Y105.226 E66.09319
G0 F3600 X166.32 Y105.792
G1 F1800 X137.208 Y76.68 E67.46253
G0 F3600 X136.643 Y76.68
G1 F1800 X166.32 Y106.357 E68.85845
G0 F3600 X166.32 Y106.923
G1 F1800 X136.077 Y76.68 E70.28098
G0 F3600 X135.511 Y76.68
G1 F1800 X166.32 Y107.489 E71.73015
G0 F3600 X166.32 Y108.054
G1 F1800 X134.946 Y76.68 E73.20588
G0 F3600 X134.38 Y76.68
G1 F1800 X166.32 Y108.62 E74.70824
G0 F3600 X166.32 Y109.186
G1 F1800 X133.814 Y76.68 E76.23722
G0 F3600 X133.249 Y76.68
G1 F1800 X166.32 Y109.751 E77.79278
G0 F3600 X166.32 Y110.317
G1 F1800 X132.683 Y76.68 E79.37496
G0 F3600 X132.117 Y76.68
G1 F1800 X166.32 Y110.883 E80.98377
G0 F3600 X166.32 Y111.449
G1 F1800 X131.552 Y76.68 E82.61917
G0 F3600 X130.986 Y76.68
G1 F1800 X166.32 Y112.014 E84.28118
G0 F3600 X166.32 Y112.58
G1 F1800 X130.42 Y76.68 E85.9698
G0 F3600 X129.855 Y76.68
G1 F1800 X166.32 Y113.146 E87.68503
G0 F3600 X166.32 Y113.711
G1 F1800 X129.289 Y76.68 E89.42685
G0 F3600 X128.723 Y76.68
G1 F1800 X166.32 Y114.277 E91.1953
G0 F3600 X166.32 Y114.843
G1 F1800 X128.157 Y76.68 E92.99037
G0 F3600 X127.592 Y76.68
G1 F1800 X166.32 Y115.408 E94.81202
G0 F3600 X166.32 Y115.974
G1 F1800 X127.026 Y76.68 E96.66029
G0 F3600 X126.46 Y76.68
G1 F1800 X166.1 Y116.32 E98.52483
G0 F3600 X165.534 Y116.32
G1 F1800 X125.895 Y76.68 E100.38935
G0 F3600 X125.329 Y76.68
G1 F1800 X164.969 Y116.32 E102.25389
G0 F3600 X164.403 Y116.32
G1 F1800 X124.763 Y76.68 E104.11844
G0 F3600 X124.198 Y76.68
G1 F1800 X163.837 Y116.32 E105.98296
G0 F3600 X163.272 Y116.32
G1 F1800 X123.632 Y76.68 E107.8475
G0 F3600 X123.066 Y76.68
G1 F1800 X162.706 Y116.32 E109.71205
G0 F3600 X162.14 Y116.32
G1 F1800 X122.501 Y76.68 E111.57657
G0 F3600 X121.935 Y76.68
G1 F1800 X161.575 Y116.32 E113.44111
G0 F3600 X161.009 Y116.32
G1 F1800 X121.369 Y76.68 E115.30566
G0 F3600 X120.804 Y76.68
G1 F1800 X160.443 Y116.32 E117.17018
G0 F3600 X159.878 Y116.32
G1 F1800 X120.238 Y76.68 E119.03472
G0 F3600 X119.672 Y76.68
G1 F1800 X159.312 Y116.32 E120.89926
G0 F3600 X158.746 Y116.32
G1 F1800 X119.106 Y76.68 E122.76381
G0 F3600 X118.679 Y76.819
G1 F1800 X158.18 Y116.32 E124.62181
G0 F3600 X157.615 Y116.32
G1 F1800 X118.679 Y77.384 E126.45324
G0 F3600 X118.679 Y77.95
G1 F1800 X157.049 Y116.32 E128.25805
G0 F3600 X156.483 Y116.32
G1 F1800 X118.679 Y78.516 E130.03624
G0 F3600 X118.679 Y79.081
G1 F1800 X155.918 Y116.32 E131.78784
G0 F3600 X155.352 Y116.32
G1 F1800 X118.679 Y79.647 E133.51283
G0 F3600 X118.679 Y80.213
G1 F1800 X154.786 Y116.32 E135.21119
G0 F3600 X154.221 Y116.32
G1 F1800 X118.679 Y80.778 E136.88298
G0 F3600 X118.679 Y81.344
G1 F1800 X153.655 Y116.32 E138.52814
G0 F3600 X153.089 Y116.32
G1 F1800 X118.679 Y81.91 E140.14668
G0 F3600 X118.679 Y82.476
G1 F1800 X152.524 Y116.32 E141.73862
G0 F3600 X151.958 Y116.32
G1 F1800 X118.679 Y83.041 E143.30397
G0 F3600 X118.679 Y83.607
G1 F1800 X151.392 Y116.32 E144.84269
G0 F3600 X150.827 Y116.32
G1 F1800 X118.679 Y84.173 E146.35481
G0 F3600 X118.679 Y84.738
G1 F1800 X150.261 Y116.32 E147.84033
G0 F3600 X149.695 Y116.32
G1 F1800 X118.679 Y85.304 E149.29922
G0 F3600 X118.679 Y85.87
G1 F1800 X149.13 Y116.32 E150.73152
G0 F3600 X148.564 Y116.32
G1 F1800 X118.679 Y86.435 E152.13722
G0 F3600 X118.679 Y87.001
G1 F1800 X147.998 Y116.32 E153.5163
G0 F3600 X147.432 Y116.32
G1 F1800 X118.679 Y87.567 E154.86875
G0 F3600 X118.679 Y88.132
G1 F1800 X146.867 Y116.32 E156.19463
G0 F3600 X146.301 Y116.32
G1 F1800 X118.679 Y88.698 E157.49388
G0 F3600 X118.679 Y89.264
G1 F1800 X145.735 Y116.32 E158.76651
G0 F3600 X145.17 Y116.32
G1 F1800 X118.679 Y89.829 E160.01257
G0 F3600 X118.679 Y90.395
G1 F1800 X144.604 Y116.32 E161.232
G0 F3600 X144.038 Y116.32
G1 F1800 X118.679 Y90.961 E162.42481
G0 F3600 X118.679 Y91.526
G1 F1800 X143.473 Y116.32 E163.59104
G0 F3600 X142.907 Y116.32
G1 F1800 X118.679 Y92.092 E164.73065
G0 F3600 X118.679 Y92.658
G1 F1800 X142.341 Y116.32 E165.84364
G0 F3600 X141.776 Y116.32
G1 F1800 X118.679 Y93.224 E166.93003
G0 F3600 X118.679 Y93.789
G1 F1800 X141.21 Y116.32 E167.98982
G0 F3600 X140.644 Y116.32
G1 F1800 X118.679 Y94.355 E169.02299
G0 F3600 X118.679 Y94.921
G1 F1800 X140.079 Y116.32 E170.02955
G0 F3600 X139.513 Y116.32
G1 F1800 X118.679 Y95.486 E171.00952
G0 F3600 X118.679 Y96.052
G1 F1800 X138.947 Y116.32 E171.96287
G0 F3600 X138.382 Y116.32
G1 F1800 X118.679 Y96.618 E172.88961
G0 F3600 X118.679 Y97.183
G1 F1800 X137.816 Y116.32 E173.78976
G0 F3600 X137.25 Y116.32
G1 F1800 X118.679 Y97.749 E174.66328
G0 F3600 X118.679 Y98.315
G1 F1800 X136.684 Y116.32 E175.51018
G0 F3600 X136.119 Y116.32
G1 F1800 X118.679 Y98.88 E176.3305
G0 F3600 X118.679 Y99.446
G1 F1800 X135.553 Y116.32 E177.1242
G0 F3600 X134.987 Y116.32
G1 F1800 X118.679 Y100.012 E177.89128
G0 F3600 X118.679 Y100.577
G1 F1800 X134.422 Y116.32 E178.63179
G0 F3600 X133.856 Y116.32
G1 F1800 X118.679 Y101.143 E179.34566
G0 F3600 X118.679 Y101.709
G1 F1800 X133.29 Y116.32 E180.03292
G0 F3600 X132.725 Y116.32
G1 F1800 X118.679 Y102.275 E180.69358
G0 F3600 X118.679 Y102.84
G1 F1800 X132.159 Y116.32 E181.32764
G0 F3600 X131.593 Y116.32
G1 F1800 X118.679 Y103.406 E181.93507
G0 F3600 X118.679 Y103.972
G1 F1800 X131.028 Y116.32 E182.51591
G0 F3600 X130.462 Y116.32
G1 F1800 X118.679 Y104.537 E183.07014
G0 F3600 X118.679 Y105.103
G1 F1800 X129.896 Y116.32 E183.59776
G0 F3600 X129.331 Y116.32
G1 F1800 X118.679 Y105.669 E184.09877
G0 F3600 X118.679 Y106.234
G1 F1800 X128.765 Y116.32 E184.57319
G0 F3600 X128.199 Y116.32
G1 F1800 X118.679 Y106.8 E185.02098
G0 F3600 X118.679 Y107.366
G1 F1800 X127.633 Y116.32 E185.44215
G0 F3600 X127.068 Y116.32
G1 F1800 X118.679 Y107.931 E185.83674
G0 F3600 X118.679 Y108.497
G1 F1800 X126.502 Y116.32 E186.20471
G0 F3600 X125.936 Y116.32
G1 F1800 X118.679 Y109.063 E186.54606
G0 F3600 X118.679 Y109.628
G1 F1800 X125.371 Y116.32 E186.86083
G0 F3600 X124.805 Y116.32
G1 F1800 X118.679 Y110.194 E187.14897
G0 F3600 X118.679 Y110.76
G1 F1800 X124.239 Y116.32 E187.4105
G0 F3600 X123.674 Y116.32
G1 F1800 X118.679 Y111.325 E187.64545
G0 F3600 X118.679 Y111.891
G1 F1800 X123.108 Y116.32 E187.85378
G0 F3600 X122.542 Y116.32
G1 F1800 X118.679 Y112.457 E188.03548
G0 F3600 X118.679 Y113.023
G1 F1800 X121.977 Y116.32 E188.19058
G0 F3600 X121.411 Y116.32
G1 F1800 X118.679 Y113.588 E188.31909
G0 F3600 X118.679 Y114.154
G1 F1800 X120.845 Y116.32 E188.42097
G0 F3600 X120.28 Y116.32
G1 F1800 X118.679 Y114.72 E188.49625
G0 F3600 X118.679 Y115.285
G1 F1800 X119.714 Y116.32 E188.54494
G0 F3600 X119.148 Y116.32
G1 F1800 X118.679 Y115.851 E188.567
G0 F3600 X118.71 Y115.851
G1 F1500 E182.067
;MESH:NONMESH
G0 F600 Z0.4
G0 F3600 X117.924 Y75.924
G0 X116.835 Y75.924
G0 X114.958 Y73.578
;TIME_ELAPSED:199.723510
;LAYER:1
M106 S255
;TYPE:SKIRT
G1 F1500 E188.567
G1 F1800 X115.294 Y73.201 E188.58379
G1 X115.685 Y72.88 E188.60062
G1 X116.122 Y72.626 E188.61743
G1 X116.593 Y72.443 E188.63424
G1 X117.088 Y72.337 E188.65107
G1 X117.74 Y72.301 E188.67279
G1 X166.839 Y72.3 E190.30583
G1 X167.537 Y72.31 E190.32905
G1 X168.04 Y72.357 E190.34585
G1 X168.53 Y72.483 E190.36268
G1 X168.994 Y72.685 E190.37951
G1 X169.42 Y72.957 E190.39632
G1 X169.798 Y73.292 E190.41312
G1 X170.118 Y73.683 E190.42993
G1 X170.373 Y74.12 E190.44676
G1 X170.556 Y74.591 E190.46356
G1 X170.663 Y75.085 E190.48037
G1 X170.699 Y75.74 E190.50219
G1 X170.7 Y116.808 E191.86812
G1 X170.69 Y117.535 E191.8923
G1 X170.643 Y118.038 E191.9091
G1 X170.517 Y118.528 E191.92593
G1 X170.316 Y118.992 E191.94275
G1 X170.044 Y119.418 E191.95956
G1 X169.709 Y119.797 E191.97638
G1 X169.318 Y120.117 E191.99319
G1 X168.882 Y120.372 E192.00999
G1 X168.411 Y120.556 E192.02681
G1 X167.916 Y120.662 E192.04364
G1 X167.472 Y120.699 E192.05846
G1 X118.161 Y120.7 E193.69855
G1 X117.463 Y120.69 E193.72177
G1 X116.96 Y120.643 E193.73857
G1 X116.47 Y120.517 E193.7554
G1 X116.006 Y120.315 E193.77223
G1 X115.58 Y120.043 E193.78904
G1 X115.202 Y119.708 E193.80584
G1 X114.882 Y119.317 E193.82265
G1 X114.627 Y118.88 E193.83948
G1 X114.444 Y118.409 E193.85628
G1 X114.337 Y117.915 E193.87309
G1 X114.301 Y117.245 E193.89541
G1 X114.3 Y76.126 E195.26303
G1 X114.31 Y75.461 E195.28516
G1 X114.358 Y74.958 E195.30196
G1 X114.484 Y74.468 E195.31879
G1 X114.686 Y74.004 E195.33562
G1 X114.958 Y73.578 E195.35243
G1 F1500 E188.85243
;MESH:candy dispenser/codex-sketch-to-code-roller-holder-short.stl
G0 F5400 X116.835 Y75.924
G0 X117.924 Y75.924
G0 X166.59 Y116.62
G0 X166.9 Y116.9
;TYPE:WALL-INNER
G1 F1500 E195.35243
G1 F2700 X166.9 Y76.1 E196.70944
G1 X118.1 Y76.1 E198.33254
G1 X118.1 Y116.9 E199.68955
G1 X166.9 Y116.9 E201.31265
G0 F5400 X167.3 Y117.3
;TYPE:WALL-OUTER
G1 F1800 X167.3 Y75.7 E202.69627
G1 X117.7 Y75.7 E204.34597
