; generated by PrusaSlicer 2.9.4 on 2026-05-07 at 05:47:29 UTC

; 

; external perimeters extrusion width = 0.45mm
; perimeters extrusion width = 0.45mm
; infill extrusion width = 0.45mm
; solid infill extrusion width = 0.45mm
; top infill extrusion width = 0.40mm
; first layer extrusion width = 0.60mm

M190 S60 ; set bed temperature and wait for it to be reached
M104 S215 ; set temperature
;TYPE:Custom
G28 ; home all axes
G1 Z5 F5000 ; lift nozzle
M109 S215 ; set temperature and wait for it to be reached
G21 ; set units to millimeters
G90 ; use absolute coordinates
M82 ; use absolute distances for extrusion
G92 E0
; Filament gcode
M107
;LAYER_CHANGE
;Z:0.3
;HEIGHT:0.3
G1 E-2 F2400
G92 E0
G1 Z.3 F7800
G92 E0
G1 X110.371 Y131.072
G1 E2 F2400
;TYPE:Perimeter
;WIDTH:0.6
G1 F1800
G1 X110.968 Y131.271 E2.04204
G1 X116.82 Y131.271 E2.43298
G1 X116.82 Y131.661 E2.45903
G1 X116.881 Y132.062 E2.48613
G1 X117.162 Y132.555 E2.52404
G1 X117.745 Y132.935 E2.57053
G1 X118.333 Y133.102 E2.61137
;WIDTH:0.555336
G1 X118.921 Y133.27 E2.64882
;WIDTH:0.510673
G1 X119.013 Y133.269 E2.65394
;WIDTH:0.464483
G1 X119.106 Y133.268 E2.65858
;WIDTH:0.456537
G1 X119.326 Y133.268 E2.66934
;WIDTH:0.494781
G1 X119.546 Y133.267 E2.68115
;WIDTH:0.533025
G1 X119.766 Y133.266 E2.69401
;WIDTH:0.566512
G1 X120.085 Y133.046 E2.71828
;WIDTH:0.6
G1 X120.405 Y132.826 E2.74422
G1 X121.158 Y131.789 E2.82983
G1 X121.36 Y131.271 E2.86697
G1 X124.629 Y131.271 E3.08536
G1 X124.629 Y133.529 E3.23621
G1 X120.763 Y133.529 E3.49448
G1 X120.29 Y133.546 E3.5261
;WIDTH:0.566512
G1 X119.818 Y133.562 E3.55568
;WIDTH:0.533025
G1 X119.734 Y133.581 E3.56071
;WIDTH:0.494781
G1 X119.651 Y133.6 E3.56528
;WIDTH:0.456537
G1 X119.568 Y133.62 E3.56946
;WIDTH:0.418293
G1 X119.321 Y133.625 E3.58037
;WIDTH:0.441941
G1 X119.172 Y133.608 E3.58743
;WIDTH:0.476307
G1 X119.023 Y133.591 E3.59513
;WIDTH:0.510673
G1 X118.873 Y133.573 E3.60354
;WIDTH:0.555336
G1 X118.262 Y133.551 E3.64098
;WIDTH:0.6
G1 X117.651 Y133.529 E3.68182
G1 X110.371 Y133.529 E4.16816
G1 X110.371 Y131.132 E4.32829
G1 E2.32829 F2400
G92 E0
G1 X110.371 Y103.928 F7800
G1 E2 F2400
G1 F1800
G1 X110.371 Y101.471 E2.16414
G1 X117.651 Y101.471 E2.65048
G1 X118.262 Y101.449 E2.69132
;WIDTH:0.555336
G1 X118.873 Y101.427 E2.72876
;WIDTH:0.510672
G1 X119.023 Y101.409 E2.73717
;WIDTH:0.476306
G1 X119.172 Y101.392 E2.74487
;WIDTH:0.44194
G1 X119.321 Y101.375 E2.75193
;WIDTH:0.455681
G1 X119.445 Y101.399 E2.75809
;WIDTH:0.503787
G1 X119.57 Y101.423 E2.76507
;WIDTH:0.551893
G1 X119.694 Y101.447 E2.77275
;WIDTH:0.6
G1 X119.818 Y101.471 E2.78119
G1 X124.629 Y101.471 E3.10259
G1 X124.629 Y103.729 E3.25344
G1 X121.36 Y103.729 E3.47183
G1 X121.123 Y103.163 E3.51282
G1 X120.405 Y102.174 E3.59447
G1 X119.777 Y101.702 E3.64695
G1 X119.349 Y101.716 E3.67556
;WIDTH:0.555336
G1 X118.921 Y101.73 E3.70178
G1 X118.333 Y101.898 E3.73923
;WIDTH:0.6
G1 X117.745 Y102.065 E3.78007
G1 X117.162 Y102.445 E3.82656
G1 X116.881 Y102.938 E3.86447
G1 X116.82 Y103.339 E3.89157
G1 X116.82 Y103.729 E3.91762
G1 X110.968 Y103.729 E4.30856
G1 X110.428 Y103.909 E4.34659
G1 E2.34659 F2400
G92 E0
G1 X110.426 Y130.458 F7800
G1 E2 F2400
G1 F1800
G1 X110.486 Y130.575 E2.00878
G1 X110.968 Y130.736 E2.04273
G1 X117.355 Y130.736 E2.46942
G1 X117.355 Y131.661 E2.53121
G1 X117.392 Y131.902 E2.5475
G1 X117.561 Y132.198 E2.57027
G1 X117.91 Y132.425 E2.59808
G1 X119.073 Y132.803 E2.67978
G1 X119.321 Y132.842 E2.69655
G1 X119.595 Y132.794 E2.71513
G1 X119.971 Y132.511 E2.74657
G1 X120.69 Y131.522 E2.82826
G1 X120.832 Y131.181 E2.85294
G1 X120.727 Y130.736 E2.88348
G1 X125.164 Y130.736 E3.1799
G1 X125.164 Y134.064 E3.40223
G1 X109.836 Y134.064 E4.42622
G1 X109.836 Y130.9 E4.63759
G1 X109.818 Y130.577 E4.6592
;WIDTH:0.565524
G1 X109.801 Y130.255 E4.67935
;WIDTH:0.531048
G1 X109.784 Y129.932 E4.69818
;WIDTH:0.496572
G1 X109.784 Y105.068 E6.03848
;WIDTH:0.531048
G1 X109.801 Y104.745 E6.05731
;WIDTH:0.565524
G1 X109.818 Y104.423 E6.07746
;WIDTH:0.6
G1 X109.836 Y104.1 E6.09907
G1 X109.836 Y100.936 E6.31044
G1 X125.164 Y100.936 E7.33443
G1 X125.164 Y104.264 E7.55676
G1 X120.727 Y104.264 E7.85318
G1 X120.832 Y103.819 E7.88372
G1 X120.69 Y103.478 E7.9084
G1 X119.971 Y102.489 E7.99009
G1 X119.595 Y102.206 E8.02153
G1 X119.321 Y102.158 E8.04011
G1 X119.073 Y102.197 E8.05688
G1 X117.91 Y102.575 E8.13858
G1 X117.561 Y102.802 E8.16639
G1 X117.392 Y103.098 E8.18916
G1 X117.355 Y103.339 E8.20545
G1 X117.355 Y104.264 E8.26724
G1 X110.968 Y104.264 E8.69393
G1 X110.486 Y104.425 E8.72788
G1 X110.396 Y104.639 E8.74339
;WIDTH:0.565524
G1 X110.306 Y104.854 E8.75796
;WIDTH:0.531048
G1 X110.216 Y105.068 E8.77147
;WIDTH:0.496572
G1 X110.216 Y130.048 E10.11802
;WIDTH:0.531048
G1 X110.306 Y130.223 E10.12947
;WIDTH:0.565524
G1 X110.396 Y130.399 E10.14183
;WIDTH:0.6
G1 X110.399 Y130.405 E10.14228
G1 X110.787 Y130.106 F7800
;TYPE:External perimeter
G1 F1800
G1 X110.807 Y130.146 E10.14527
G1 X110.968 Y130.2 E10.15661
G1 X118.064 Y130.2 E10.63066
G1 X117.891 Y130.439 E10.65037
G1 X117.891 Y131.661 E10.73201
G1 X117.959 Y131.84 E10.7448
G1 X118.076 Y131.916 E10.75412
G1 X119.239 Y132.294 E10.83582
G1 X119.368 Y132.303 E10.84446
G1 X119.538 Y132.196 E10.85788
G1 X120.256 Y131.207 E10.93953
G1 X120.304 Y131.094 E10.94773
G1 X120.256 Y130.893 E10.96154
G1 X119.753 Y130.2 E11.01875
G1 X125.7 Y130.2 E11.41604
G1 X125.7 Y134.6 E11.70998
G1 X109.3 Y134.6 E12.80559
G1 X109.3 Y100.4 E15.09033
G1 X125.7 Y100.4 E16.18594
G1 X125.7 Y104.8 E16.47988
G1 X119.753 Y104.8 E16.87717
G1 X120.256 Y104.107 E16.93438
G1 X120.304 Y103.906 E16.94819
G1 X120.256 Y103.793 E16.95639
G1 X119.538 Y102.804 E17.03804
G1 X119.413 Y102.709 E17.04853
G1 X119.239 Y102.706 E17.06016
G1 X118.076 Y103.084 E17.14186
G1 X117.959 Y103.16 E17.15118
G1 X117.891 Y103.339 E17.16397
G1 X117.891 Y104.561 E17.24561
G1 X118.064 Y104.8 E17.26532
G1 X110.968 Y104.8 E17.73937
G1 X110.807 Y104.854 E17.75071
G1 X110.7 Y105.068 E17.76669
G1 X110.7 Y129.932 E19.42774
G1 X110.76 Y130.053 E19.43676
G1 X111.135 Y130.193 F7800
G1 E17.43676 F2400
G92 E0
G1 X117.391 Y133.368 F7800
G1 E2 F2400
;TYPE:Solid infill
;WIDTH:0.639455
G1 F1800
G1 X115.696 Y131.673 E2.17193
G1 X114.883 Y131.673 E2.23024
G1 X116.337 Y133.127 E2.37773
G1 X115.524 Y133.127 E2.43604
G1 X114.069 Y131.673 E2.58358
G1 X113.256 Y131.673 E2.64189
G1 X114.71 Y133.127 E2.78938
G1 X113.897 Y133.127 E2.84769
G1 X112.443 Y131.673 E2.99518
G1 X111.63 Y131.673 E3.05349
G1 X113.084 Y133.127 E3.20098
G1 X112.27 Y133.127 E3.25937
G1 X110.773 Y131.63 E3.41122
G1 X110.773 Y132.443 E3.46953
G1 X111.698 Y133.368 E3.56336
G1 E1.56336 F2400
G92 E0
G1 X123.244 Y131.432 F7800
G1 E2 F2400
;WIDTH:0.666788
G1 F1800
G1 X124.227 Y132.415 E2.10445
G1 X124.227 Y133.127 E2.15795
G1 X124.087 Y133.127 E2.16847
G1 X122.633 Y131.673 E2.32297
G1 X121.781 Y131.673 E2.38699
G1 X123.235 Y133.127 E2.54149
G1 X122.383 Y133.127 E2.60551
G1 X121.397 Y132.141 E2.71028
G1 X121.039 Y132.635 E2.75612
G1 X121.772 Y133.368 E2.83401
G1 E.83401 F2400
G92 E0
G1 X123.262 Y101.632 F7800
G1 E2 F2400
;WIDTH:0.658283
G1 F1800
G1 X124.227 Y102.597 E2.10109
G1 X124.227 Y103.327 E2.15516
G1 X124.117 Y103.327 E2.16331
G1 X122.663 Y101.873 E2.31563
G1 X121.823 Y101.873 E2.37785
G1 X123.277 Y103.327 E2.53017
G1 X122.437 Y103.327 E2.59239
G1 X120.742 Y101.632 E2.76995
G1 E.76995 F2400
G92 E0
G1 X116.34 Y101.632 F7800
G1 E2 F2400
;WIDTH:0.600403
G1 F1800
G1 X116.873 Y102.165 E2.05039
G1 X116.594 Y102.643 E2.08739
G1 X115.823 Y101.873 E2.16024
G1 X115.065 Y101.873 E2.21092
G1 X116.432 Y103.24 E2.34017
G1 X116.418 Y103.327 E2.34606
G1 X115.761 Y103.327 E2.38998
G1 X114.307 Y101.873 E2.52745
G1 X113.549 Y101.873 E2.57813
G1 X115.003 Y103.327 E2.7156
G1 X114.245 Y103.327 E2.76628
G1 X112.791 Y101.873 E2.90375
G1 X112.033 Y101.873 E2.95443
G1 X113.487 Y103.327 E3.0919
G1 X112.729 Y103.327 E3.14258
G1 X111.275 Y101.873 E3.28005
G1 X110.773 Y101.873 E3.31361
G1 X110.773 Y102.129 E3.33073
G1 X111.971 Y103.327 E3.444
G1 X111.213 Y103.327 E3.49468
G1 X110.532 Y102.646 E3.55907
;LAYER_CHANGE
;Z:0.5
;HEIGHT:0.2
G1 E1.55907 F2400
G92 E0
G1 Z.5 F7800
G1 X110 Y105.079
G1 E2 F2400
;TYPE:Perimeter
;WIDTH:0.410842
G1 F900
G1 X110.02 Y104.589 E2.015
;WIDTH:0.449999
G1 X110.039 Y104.1 E2.03156
G1 X110.039 Y101.139 E2.13179
G1 X124.961 Y101.139 E2.63688
G1 X124.961 Y104.061 E2.73579
G1 X120.966 Y104.061 E2.87102
G1 X121.031 Y103.787 E2.88055
G1 X120.85 Y103.352 E2.8965
G1 X120.141 Y102.375 E2.93736
G1 X119.664 Y102.017 E2.95755
G1 X119.317 Y101.956 E2.96948
G1 X119.003 Y102.006 E2.98024
G1 X117.855 Y102.379 E3.0211
G1 X117.413 Y102.666 E3.03894
G1 X117.199 Y103.04 E3.05353
G1 X117.152 Y103.347 E3.06404
G1 X117.152 Y104.061 E3.08821
G1 X110.979 Y104.061 E3.29716
G1 X110.368 Y104.264 E3.31895
G1 X110.184 Y104.671 E3.33407
;WIDTH:0.410842
G1 X110.025 Y105.024 E3.34591
G1 E1.34591 F2400
G92 E0
G1 X110.29 Y130.596 F7800
G1 E2 F2400
;WIDTH:0.449999
G1 F900
G1 X110.368 Y130.736 E2.00542
G1 X110.979 Y130.939 E2.02721
G1 X117.152 Y130.939 E2.23616
G1 X117.152 Y131.653 E2.26033
G1 X117.199 Y131.96 E2.27084
G1 X117.413 Y132.334 E2.28543
G1 X117.855 Y132.621 E2.30327
G1 X119.003 Y132.994 E2.34413
G1 X119.317 Y133.044 E2.35489
G1 X119.664 Y132.983 E2.36682
G1 X120.141 Y132.625 E2.38701
G1 X120.85 Y131.648 E2.42787
G1 X121.031 Y131.213 E2.44382
G1 X120.966 Y130.939 E2.45335
G1 X124.961 Y130.939 E2.58858
G1 X124.961 Y133.861 E2.68749
G1 X110.039 Y133.861 E3.19258
G1 X110.039 Y130.9 E3.29281
G1 X110.023 Y130.496 E3.3065
;WIDTH:0.418256
G1 X110.007 Y130.092 E3.31912
G1 X110.188 Y130.414 E3.33065
;WIDTH:0.449999
G1 X110.261 Y130.544 E3.3357
G1 X110.007 Y130.092 F7800
;WIDTH:0.386512
G1 F900
G1 X110 Y129.921 E3.34059
;WIDTH:0.371684
G1 X110 Y105.079 E4.01969
G1 E2.01969 F2400
G92 E0
G1 X110.564 Y130.331 F7800
G1 E2 F2400
;WIDTH:0.449999
G1 F3600
G1 X110.612 Y130.41 E2.00313
G1 X110.979 Y130.532 E2.01622
G1 X117.559 Y130.532 E2.23894
G1 X117.559 Y131.788 E2.28145
G1 X117.715 Y132.062 E2.29212
G1 X117.981 Y132.234 E2.30284
G1 X119.196 Y132.629 E2.34609
G1 X119.525 Y132.6 E2.35727
G1 X119.811 Y132.385 E2.36938
G1 X120.521 Y131.409 E2.41023
G1 X120.629 Y131.148 E2.41979
G1 X120.521 Y130.691 E2.43568
G1 X120.405 Y130.532 E2.44234
G1 X125.368 Y130.532 E2.61033
G1 X125.368 Y134.268 E2.73679
G1 X109.632 Y134.268 E3.26943
G1 X109.632 Y100.732 E4.40458
G1 X125.368 Y100.732 E4.93722
G1 X125.368 Y104.468 E5.06368
G1 X120.405 Y104.468 E5.23167
G1 X120.521 Y104.309 E5.23833
G1 X120.629 Y103.852 E5.25422
G1 X120.521 Y103.591 E5.26378
G1 X119.811 Y102.615 E5.30463
G1 X119.525 Y102.4 E5.31674
G1 X119.317 Y102.363 E5.32389
G1 X119.128 Y102.393 E5.33037
G1 X117.981 Y102.766 E5.3712
G1 X117.715 Y102.938 E5.38192
G1 X117.587 Y103.163 E5.39068
G1 X117.559 Y103.347 E5.39698
G1 X117.559 Y104.468 E5.43492
G1 X110.979 Y104.468 E5.65764
G1 X110.612 Y104.59 E5.67073
G1 X110.368 Y105.079 E5.68923
G1 X110.368 Y130.012 E6.53318
G1 X110.532 Y130.28 E6.54382
G1 X110.841 Y130.054 F7800
;TYPE:External perimeter
G1 F1800
G1 X110.856 Y130.084 E6.54496
G1 X110.979 Y130.125 E6.54935
G1 X118.501 Y130.125 E6.80396
G1 X118.107 Y130.253 E6.81798
G1 X117.966 Y130.447 E6.8261
G1 X117.966 Y131.705 E6.86868
G1 X118.107 Y131.847 E6.87545
G1 X119.305 Y132.236 E6.91808
G1 X119.482 Y132.146 E6.9248
G1 X120.234 Y131.111 E6.9681
G1 X120.191 Y130.93 E6.9744
G1 X119.606 Y130.125 E7.00808
G1 X125.775 Y130.125 E7.21689
G1 X125.775 Y134.675 E7.3709
G1 X109.225 Y134.675 E7.9311
G1 X109.225 Y100.325 E9.0938
G1 X125.775 Y100.325 E9.654
G1 X125.775 Y104.875 E9.80801
G1 X119.606 Y104.875 E10.01682
G1 X120.191 Y104.07 E10.0505
G1 X120.227 Y103.917 E10.05582
G1 X120.191 Y103.83 E10.05901
G1 X119.482 Y102.854 E10.09984
G1 X119.387 Y102.782 E10.10387
G1 X119.254 Y102.78 E10.10837
G1 X118.107 Y103.153 E10.1492
G1 X118.018 Y103.211 E10.1528
G1 X117.966 Y103.347 E10.15773
G1 X117.966 Y104.553 E10.19855
G1 X118.107 Y104.747 E10.20667
G1 X118.7 Y104.874 E10.2272
;WIDTH:0.41646
G1 X119.293 Y105.001 E10.24604
G1 X118.69 Y104.938 E10.26487
;WIDTH:0.449999
G1 X118.086 Y104.875 E10.28543
G1 X110.979 Y104.875 E10.52599
G1 X110.856 Y104.916 E10.53038
G1 X110.775 Y105.079 E10.53654
G1 X110.775 Y129.921 E11.37741
G1 X110.814 Y130 E11.38039
G1 X111.196 Y130.119 F7800
G1 E9.38039 F2400
G92 E0
G1 X116.847 Y131.244 F7800
G1 E2 F2400
;TYPE:Solid infill
G1 F1200
G1 X116.847 Y131.646 E2.01361
G1 X116.926 Y132.088 E2.02881
G1 X117.227 Y132.569 E2.04802
G1 X117.773 Y132.916 E2.06992
G1 X118.344 Y133.085 E2.09008
;WIDTH:0.419512
G1 X118.914 Y133.254 E2.1087
;WIDTH:0.389025
G1 X119.293 Y133.298 E2.11968
;WIDTH:0.382069
G1 X119.546 Y133.263 E2.12688
;WIDTH:0.412464
G1 X119.799 Y133.229 E2.13472
;WIDTH:0.449999
G1 X120.397 Y132.791 E2.15981
G1 X121.141 Y131.764 E2.20274
G1 X121.342 Y131.244 E2.22161
G1 X124.656 Y131.244 E2.33378
G1 X124.656 Y133.556 E2.41204
G1 X120.595 Y133.556 E2.5495
G1 X119.914 Y133.574 E2.57256
;WIDTH:0.412464
G1 X119.642 Y133.589 E2.58093
;WIDTH:0.382243
G1 X119.37 Y133.605 E2.58862
;WIDTH:0.389025
G1 X118.862 Y133.586 E2.60325
;WIDTH:0.419512
G1 X118.267 Y133.571 E2.62189
;WIDTH:0.449999
G1 X117.672 Y133.556 E2.64204
G1 X110.345 Y133.556 E2.89005
G1 X110.346 Y131.052 E2.97481
G1 X110.995 Y131.244 E2.99772
G1 X116.643 Y131.244 E3.1889
G1 X116.44 Y131.652 E3.20433
G1 X116.521 Y132.173 E3.22218
G1 X116.807 Y132.701 E3.24251
G1 X117.005 Y132.91 E3.25225
G1 X117.372 Y133.148 E3.26706
G1 X110.752 Y133.148 E3.49114
G1 X110.753 Y131.605 E3.54337
G1 X110.995 Y131.652 E3.55171
G1 X116.236 Y131.652 E3.72911
G1 X115.999 Y132.128 E3.74711
;WIDTH:0.587845
G1 X116.067 Y132.317 E3.75621
G1 X116.243 Y132.672 E3.77416
G1 X111.228 Y132.672 E4.00139
G1 X111.229 Y132.128 E4.02604
G1 X115.796 Y132.128 E4.23297
G1 E2.23297 F2400
G92 E0
G1 X121.538 Y131.838 F7800
G1 E2 F2400
;WIDTH:0.449999
G1 F1200
G1 X121.455 Y132.024 E2.00689
G1 X120.726 Y133.03 E2.04894
G1 X120.61 Y133.148 E2.05454
G1 X124.248 Y133.148 E2.17768
G1 X124.248 Y131.652 E2.22832
G1 X121.621 Y131.652 E2.31724
G1 X121.939 Y132.128 E2.33662
;WIDTH:0.587845
G1 X123.772 Y132.128 E2.41967
G1 X123.772 Y132.672 E2.44432
G1 X121.573 Y132.672 E2.54396
G1 X121.825 Y132.297 E2.56443
G1 E.56443 F2400
G92 E0
G1 X117.469 Y101.444 F7800
G1 E2 F2400
;WIDTH:0.449999
G1 F1200
G1 X110.345 Y101.444 E2.24114
G1 X110.346 Y103.959 E2.32627
G1 X110.931 Y103.766 E2.34712
G1 X116.847 Y103.756 E2.54737
G1 X116.849 Y103.323 E2.56203
G1 X116.926 Y102.912 E2.57618
G1 X117.227 Y102.431 E2.59539
G1 X117.75 Y102.091 E2.6165
G1 X118.332 Y101.918 E2.63705
;WIDTH:0.419233
G1 X118.914 Y101.746 E2.65604
;WIDTH:0.388466
G1 X119.339 Y101.703 E2.66831
;WIDTH:0.382828
G1 X119.571 Y101.738 E2.67494
;WIDTH:0.413372
G1 X119.803 Y101.773 E2.68217
;WIDTH:0.449999
G1 X120.377 Y102.182 E2.70603
G1 X121.125 Y103.214 E2.74917
G1 X121.342 Y103.756 E2.76893
G1 X124.656 Y103.756 E2.8811
G1 X124.656 Y101.444 E2.95936
G1 X120.595 Y101.444 E3.09682
G1 X119.919 Y101.426 E3.11971
;WIDTH:0.413372
G1 X119.643 Y101.411 E3.12822
;WIDTH:0.382828
G1 X119.366 Y101.396 E3.13606
;WIDTH:0.388466
G1 X118.862 Y101.414 E3.15055
;WIDTH:0.419233
G1 X118.267 Y101.429 E3.16917
;WIDTH:0.449999
G1 X117.672 Y101.444 E3.18932
G1 X117.372 Y101.852 E3.20646
G1 X117.005 Y102.09 E3.22127
G1 X116.807 Y102.299 E3.23101
G1 X116.521 Y102.827 E3.25134
G1 X116.44 Y103.348 E3.26919
G1 X110.995 Y103.348 E3.4535
G1 X110.753 Y103.396 E3.46185
G1 X110.752 Y101.852 E3.51411
G1 X117.168 Y101.852 E3.73128
G1 X116.243 Y102.328 F7800
;WIDTH:0.587845
G1 F1200
G1 X116.159 Y102.474 E3.73891
G1 X116.025 Y102.872 E3.75794
G1 X111.229 Y102.872 E3.97525
G1 X111.228 Y102.328 E3.9999
G1 X116.039 Y102.328 E4.21789
G1 E2.21789 F2400
G92 E0
G1 X120.641 Y101.852 F7800
G1 E2 F2400
;WIDTH:0.449999
G1 F1200
G1 X124.248 Y101.852 E2.12209
G1 X124.248 Y103.348 E2.17273
G1 X121.621 Y103.348 E2.26165
G1 X121.455 Y102.976 E2.27544
G1 X120.76 Y102.016 E2.31556
G1 X121.573 Y102.328 F7800
;WIDTH:0.587845
G1 F1200
G1 X123.772 Y102.328 E2.4152
G1 X123.772 Y102.872 E2.43985
G1 X121.939 Y102.872 E2.5229
G1 X121.875 Y102.747 E2.52926
G1 X121.692 Y102.493 E2.54344
;LAYER_CHANGE
;Z:0.7
;HEIGHT:0.2
G1 E.54344 F2400
G92 E0
G1 Z.7 F7800
