; generated by PrusaSlicer 2.9.4 on 2026-05-07 at 06:35:55 UTC

; 

; external perimeters extrusion width = 0.45mm
; perimeters extrusion width = 0.45mm
; infill extrusion width = 0.45mm
; solid infill extrusion width = 0.45mm
; top infill extrusion width = 0.40mm
; first layer extrusion width = 0.60mm

M190 S60 ; set bed temperature and wait for it to be reached
M104 S215 ; set temperature
;TYPE:Custom
G28 ; home all axes
G1 Z5 F5000 ; lift nozzle
M109 S215 ; set temperature and wait for it to be reached
G21 ; set units to millimeters
G90 ; use absolute coordinates
M82 ; use absolute distances for extrusion
G92 E0
; Filament gcode
M107
;LAYER_CHANGE
;Z:0.3
;HEIGHT:0.3
G1 E-2 F2400
G92 E0
G1 Z.3 F7800
G92 E0
G1 X110.371 Y104.328
G1 E2 F2400
;TYPE:Perimeter
;WIDTH:0.6
G1 F1800
G1 X110.371 Y101.871 E2.16414
G1 X118.342 Y101.871 E2.69665
G1 X117.745 Y102.065 E2.73859
G1 X117.069 Y102.561 E2.7946
G1 X116.832 Y103.155 E2.83732
G1 X116.82 Y104.129 E2.90239
G1 X110.968 Y104.129 E3.29333
G1 X110.428 Y104.309 E3.33136
G1 E1.33136 F2400
G92 E0
G1 X120.002 Y101.871 F7800
G1 E2 F2400
G1 F1800
G1 X124.629 Y101.871 E2.30911
G1 X124.629 Y104.129 E2.45996
G1 X121.319 Y104.129 E2.68109
G1 X121.379 Y103.943 E2.69415
G1 X121.276 Y103.435 E2.72878
G1 X121.123 Y103.163 E2.74963
G1 X120.405 Y102.174 E2.83128
G1 X120.05 Y101.907 E2.86095
G1 E.86095 F2400
G92 E0
G1 X121.319 Y130.871 F7800
G1 E2 F2400
G1 F1800
G1 X124.629 Y130.871 E2.22113
G1 X124.629 Y133.129 E2.37198
G1 X120.002 Y133.129 E2.68109
G1 X120.405 Y132.826 E2.71477
G1 X121.123 Y131.837 E2.79642
G1 X121.276 Y131.565 E2.81727
G1 X121.379 Y131.057 E2.8519
G1 X121.337 Y130.928 E2.86096
G1 E.86096 F2400
G92 E0
G1 X110.371 Y130.672 F7800
G1 E2 F2400
G1 F1800
G1 X110.968 Y130.871 E2.04204
G1 X116.82 Y130.871 E2.43298
G1 X116.832 Y131.845 E2.49805
G1 X117.069 Y132.439 E2.54077
G1 X117.745 Y132.935 E2.59678
G1 X118.342 Y133.129 E2.63872
G1 X110.371 Y133.129 E3.17123
G1 X110.371 Y130.732 E3.33136
G1 E1.33136 F2400
G92 E0
G1 X110.43 Y104.959 F7800
G1 E2 F2400
G1 F1800
G1 X110.396 Y105.039 E2.00581
;WIDTH:0.565524
G1 X110.306 Y105.254 E2.02038
;WIDTH:0.531048
G1 X110.216 Y105.468 E2.03389
;WIDTH:0.496572
G1 X110.216 Y129.648 E3.33732
;WIDTH:0.531047
G1 X110.306 Y129.823 E3.34877
;WIDTH:0.565523
G1 X110.396 Y129.999 E3.36113
;WIDTH:0.6
G1 X110.486 Y130.175 E3.37434
G1 X110.968 Y130.336 E3.40829
G1 X117.43 Y130.336 E3.83999
G1 X117.355 Y130.439 E3.8485
G1 X117.355 Y131.752 E3.93622
G1 X117.505 Y132.128 E3.96326
G1 X117.91 Y132.425 E3.99681
;WIDTH:0.642937
G1 X118.485 Y132.635 E4.04098
;WIDTH:0.685874
G1 X119.06 Y132.844 E4.0884
;WIDTH:0.719135
G1 X119.115 Y132.875 E4.09356
;WIDTH:0.752397
G1 X119.169 Y132.905 E4.09886
G1 X119.473 Y132.905 E4.12495
G1 X119.598 Y132.807 E4.13858
;WIDTH:0.714297
G1 X119.722 Y132.708 E4.15144
;WIDTH:0.676198
G1 X119.847 Y132.61 E4.16356
;WIDTH:0.638099
G1 X119.971 Y132.511 E4.17491
;WIDTH:0.6
G1 X120.771 Y131.411 E4.26578
G1 X120.843 Y131.054 E4.29011
G1 X120.69 Y130.578 E4.32351
G1 X120.514 Y130.336 E4.3435
G1 X125.164 Y130.336 E4.65414
G1 X125.164 Y133.664 E4.87647
G1 X120.559 Y133.664 E5.18411
;WIDTH:0.634889
G1 X120.153 Y133.647 E5.21303
;WIDTH:0.669778
G1 X119.748 Y133.629 E5.24364
;WIDTH:0.711087
G1 X119.64 Y133.609 E5.2525
;WIDTH:0.752397
G1 X119.533 Y133.588 E5.26186
G1 X119.235 Y133.605 E5.28747
;WIDTH:0.719135
G1 X118.937 Y133.621 E5.31184
;WIDTH:0.685874
G1 X118.325 Y133.643 E5.35931
;WIDTH:0.642937
G1 X117.714 Y133.664 E5.40343
;WIDTH:0.6
G1 X109.836 Y133.664 E5.92972
G1 X109.836 Y130.5 E6.14109
G1 X109.818 Y130.177 E6.1627
;WIDTH:0.565523
G1 X109.801 Y129.855 E6.18285
;WIDTH:0.531047
G1 X109.784 Y129.532 E6.20168
;WIDTH:0.496572
G1 X109.784 Y105.468 E7.49886
;WIDTH:0.531048
G1 X109.801 Y105.145 E7.51769
;WIDTH:0.565524
G1 X109.818 Y104.823 E7.53784
;WIDTH:0.6
G1 X109.836 Y104.5 E7.55945
G1 X109.836 Y101.336 E7.77082
G1 X117.714 Y101.336 E8.29711
;WIDTH:0.642936
G1 X118.325 Y101.357 E8.34123
;WIDTH:0.685872
G1 X118.937 Y101.379 E8.3887
;WIDTH:0.719133
G1 X119.023 Y101.395 E8.39584
;WIDTH:0.752396
G1 X119.11 Y101.412 E8.40345
G1 X119.269 Y101.393 E8.41719
;WIDTH:0.714297
G1 X119.429 Y101.374 E8.43025
;WIDTH:0.676198
G1 X119.588 Y101.355 E8.44247
;WIDTH:0.638099
G1 X119.748 Y101.336 E8.454
;WIDTH:0.6
G1 X125.164 Y101.336 E8.81582
G1 X125.164 Y104.664 E9.03815
G1 X120.514 Y104.664 E9.34879
G1 X120.69 Y104.422 E9.36878
G1 X120.843 Y103.946 E9.40218
G1 X120.781 Y103.641 E9.42297
G1 X120.69 Y103.478 E9.43544
G1 X119.971 Y102.489 E9.51713
G1 X119.595 Y102.206 E9.54857
;WIDTH:0.647731
G1 X119.504 Y102.166 E9.5558
;WIDTH:0.695462
G1 X119.413 Y102.126 E9.56362
;WIDTH:0.743194
G1 X119.321 Y102.086 E9.57211
;WIDTH:0.752396
G1 X119.169 Y102.095 E9.58518
G1 X119.115 Y102.125 E9.59048
;WIDTH:0.719133
G1 X119.06 Y102.156 E9.59564
;WIDTH:0.685872
G1 X118.485 Y102.365 E9.64306
;WIDTH:0.642936
G1 X117.91 Y102.575 E9.68723
;WIDTH:0.6
G1 X117.505 Y102.872 E9.72078
G1 X117.363 Y103.229 E9.74645
G1 X117.355 Y104.561 E9.83544
G1 X117.43 Y104.664 E9.84395
G1 X110.968 Y104.664 E10.27565
G1 X110.486 Y104.825 E10.3096
G1 X110.453 Y104.904 E10.31532
G1 X110.787 Y105.294 F7800
;TYPE:External perimeter
G1 F1800
G1 X110.7 Y105.468 E10.32832
G1 X110.7 Y129.532 E11.93592
G1 X110.807 Y129.746 E11.9519
G1 X110.968 Y129.8 E11.96324
G1 X119.238 Y129.803 E12.51572
G1 X118.076 Y130.184 E12.59741
G1 X117.891 Y130.439 E12.61846
G1 X117.891 Y131.661 E12.7001
G1 X117.941 Y131.817 E12.71104
G1 X118.076 Y131.916 E12.72222
G1 X119.239 Y132.294 E12.80392
G1 X119.368 Y132.303 E12.81256
G1 X119.538 Y132.196 E12.82598
G1 X120.256 Y131.207 E12.90763
G1 X120.308 Y131.051 E12.91862
G1 X120.256 Y130.893 E12.92973
G1 X119.537 Y129.904 E13.01142
;WIDTH:0.597941
G1 X119.321 Y129.797 E13.02746
G1 X119.591 Y129.799 E13.04543
;WIDTH:0.6
G1 X125.7 Y129.8 E13.45354
G1 X125.7 Y134.2 E13.74748
G1 X109.3 Y134.2 E14.84309
G1 X109.3 Y100.8 E17.07439
G1 X125.7 Y100.8 E18.17
G1 X125.7 Y105.2 E18.46394
G1 X119.368 Y105.201 E18.88695
;WIDTH:0.598855
G1 X119.537 Y105.096 E18.90021
;WIDTH:0.6
G1 X120.256 Y104.107 E18.9819
G1 X120.308 Y103.949 E18.99301
G1 X120.256 Y103.793 E19.004
G1 X119.538 Y102.804 E19.08565
G1 X119.413 Y102.709 E19.09614
G1 X119.239 Y102.706 E19.10777
G1 X118.076 Y103.084 E19.18947
G1 X117.941 Y103.183 E19.20065
G1 X117.891 Y103.339 E19.21159
G1 X117.891 Y104.561 E19.29323
G1 X118.076 Y104.816 E19.31428
;WIDTH:0.606517
G1 X119.238 Y105.197 E19.39697
G1 X118.015 Y105.2 E19.47967
;WIDTH:0.6
G1 X110.968 Y105.2 E19.95045
G1 X110.822 Y105.249 E19.96074
G1 X110.711 Y105.633 F7800
G1 E17.96074 F2400
G92 E0
G1 X115.793 Y102.032 F7800
G1 E2 F2400
;TYPE:Solid infill
;WIDTH:0.616088
G1 F1800
G1 X116.553 Y102.792 E2.07396
G1 X116.434 Y103.091 E2.0961
G1 X116.427 Y103.446 E2.12053
G1 X115.254 Y102.273 E2.23468
G1 X114.473 Y102.273 E2.28842
G1 X115.928 Y103.727 E2.42996
G1 X115.147 Y103.727 E2.4837
G1 X113.693 Y102.273 E2.6252
G1 X112.913 Y102.273 E2.67887
G1 X114.367 Y103.727 E2.82037
G1 X113.587 Y103.727 E2.87404
G1 X112.133 Y102.273 E3.01554
G1 X111.352 Y102.273 E3.06928
G1 X112.807 Y103.727 E3.21082
G1 X112.026 Y103.727 E3.26456
G1 X110.773 Y102.474 E3.3865
G1 X110.773 Y103.254 E3.44017
G1 X111.487 Y103.968 E3.50965
G1 E1.50965 F2400
G92 E0
G1 X124.468 Y103.219 F7800
G1 E2 F2400
;WIDTH:0.649378
G1 F1800
G1 X123.522 Y102.273 E2.09761
G1 X122.694 Y102.273 E2.15802
G1 X124.148 Y103.727 E2.30805
G1 X123.321 Y103.727 E2.36839
G1 X121.867 Y102.273 E2.51842
G1 X121.04 Y102.273 E2.57876
G1 X122.735 Y103.968 E2.75366
G1 E.75366 F2400
G92 E0
G1 X123.228 Y131.032 F7800
G1 E2 F2400
;WIDTH:0.674227
G1 F1800
G1 X124.227 Y132.031 E2.10746
G1 X124.227 Y132.727 E2.1604
G1 X124.061 Y132.727 E2.17303
G1 X122.606 Y131.273 E2.32949
G1 X121.744 Y131.273 E2.39506
G1 X123.198 Y132.727 E2.55147
G1 X122.336 Y132.727 E2.61704
G1 X121.533 Y131.924 E2.70342
G1 X121.453 Y132.067 E2.71588
G1 X121.184 Y132.437 E2.75068
G1 X121.714 Y132.968 E2.80775
G1 E.80775 F2400
G92 E0
G1 X116.913 Y132.46 F7800
G1 E2 F2400
;WIDTH:0.641926
G1 F1800
G1 X115.726 Y131.273 E2.12092
G1 X114.909 Y131.273 E2.17977
G1 X116.363 Y132.727 E2.32789
G1 X115.546 Y132.727 E2.38674
G1 X114.092 Y131.273 E2.53486
G1 X113.275 Y131.273 E2.59371
G1 X114.73 Y132.727 E2.74188
G1 X113.913 Y132.727 E2.80073
G1 X112.459 Y131.273 E2.94885
G1 X111.642 Y131.273 E3.0077
G1 X113.096 Y132.727 E3.15582
G1 X112.279 Y132.727 E3.21467
G1 X110.773 Y131.221 E3.36809
G1 X110.773 Y132.038 E3.42694
G1 X111.703 Y132.968 E3.52168
;LAYER_CHANGE
;Z:0.5
;HEIGHT:0.2
G1 E1.52168 F2400
G92 E0
G1 Z.5 F7800
G1 X110.295 Y104.825
G1 E2 F2400
;TYPE:Perimeter
;WIDTH:0.449999
G1 F900
G1 X110.184 Y105.071 E2.00914
;WIDTH:0.410842
G1 X110 Y105.479 E2.02283
G1 X110.02 Y104.989 E2.03783
;WIDTH:0.449999
G1 X110.039 Y104.5 E2.05439
G1 X110.039 Y101.539 E2.15462
G1 X117.722 Y101.539 E2.41468
;WIDTH:0.457916
G1 X119.748 Y101.539 E2.48459
;WIDTH:0.449999
G1 X124.961 Y101.539 E2.66104
G1 X124.961 Y104.461 E2.75995
G1 X120.878 Y104.461 E2.89815
G1 X121.044 Y103.946 E2.91647
G1 X120.967 Y103.56 E2.92979
G1 X120.85 Y103.352 E2.93787
G1 X120.141 Y102.375 E2.97873
G1 X119.664 Y102.017 E2.99892
;WIDTH:0.454866
G1 X119.317 Y101.954 E3.011
;WIDTH:0.457916
G1 X119.001 Y102.002 E3.02203
G1 X117.855 Y102.379 E3.06366
;WIDTH:0.449999
G1 X117.474 Y102.604 E3.07864
G1 X117.25 Y102.91 E3.09148
G1 X117.152 Y103.347 E3.10664
G1 X117.152 Y104.461 E3.14435
G1 X110.979 Y104.461 E3.3533
G1 X110.368 Y104.664 E3.37509
G1 X110.32 Y104.77 E3.37903
G1 E1.37903 F2400
G92 E0
G1 X110.007 Y129.692 F7800
G1 E2 F2400
;WIDTH:0.418256
G1 F900
G1 X110.188 Y130.014 E2.01153
;WIDTH:0.449999
G1 X110.368 Y130.336 E2.02402
G1 X110.979 Y130.539 E2.04581
G1 X117.152 Y130.539 E2.25476
G1 X117.152 Y131.653 E2.29247
G1 X117.25 Y132.09 E2.30763
G1 X117.474 Y132.396 E2.32047
G1 X117.855 Y132.621 E2.33545
;WIDTH:0.457917
G1 X119.001 Y132.998 E2.37708
G1 X119.317 Y133.046 E2.38811
;WIDTH:0.456407
G1 X119.665 Y132.986 E2.40025
G1 X120.141 Y132.625 E2.42079
;WIDTH:0.449999
G1 X120.953 Y131.506 E2.46759
G1 X121.044 Y131.054 E2.4832
G1 X120.878 Y130.539 E2.50152
G1 X124.961 Y130.539 E2.63972
G1 X124.961 Y133.461 E2.73863
G1 X120.567 Y133.461 E2.88736
;WIDTH:0.464157
G1 X118.929 Y133.457 E2.94473
;WIDTH:0.457917
G1 X117.722 Y133.461 E2.98638
;WIDTH:0.449999
G1 X110.039 Y133.461 E3.24644
G1 X110.039 Y130.5 E3.34667
G1 X110.023 Y130.096 E3.36036
;WIDTH:0.418256
G1 X110.01 Y129.752 E3.3711
G1 X110.007 Y129.692 F7800
;WIDTH:0.386512
G1 F900
G1 X110 Y129.521 E3.37599
;WIDTH:0.371684
G1 X110 Y105.479 E4.03322
G1 X110.567 Y105.08 F7800
;WIDTH:0.449999
G1 F3600
G1 X110.368 Y105.479 E4.04831
G1 X110.368 Y129.612 E4.86518
G1 X110.612 Y130.01 E4.88098
G1 X110.979 Y130.132 E4.89407
G1 X117.787 Y130.132 E5.12451
G1 X117.559 Y130.447 E5.13767
G1 X117.559 Y131.653 E5.17849
G1 X117.618 Y131.916 E5.18761
G1 X117.752 Y132.099 E5.19529
G1 X117.981 Y132.234 E5.20429
G1 X119.196 Y132.629 E5.24754
G1 X119.525 Y132.6 E5.25872
G1 X119.811 Y132.385 E5.27083
G1 X120.583 Y131.324 E5.31524
G1 X120.637 Y131.052 E5.32463
G1 X120.521 Y130.691 E5.33746
G1 X120.114 Y130.132 E5.36087
G1 X125.368 Y130.132 E5.53871
G1 X125.368 Y133.868 E5.66517
G1 X109.632 Y133.868 E6.19781
G1 X109.632 Y101.132 E7.30588
G1 X125.368 Y101.132 E7.83852
G1 X125.368 Y104.868 E7.96498
G1 X120.114 Y104.868 E8.14282
G1 X120.521 Y104.309 E8.16623
G1 X120.637 Y103.948 E8.17906
G1 X120.591 Y103.716 E8.18707
G1 X120.521 Y103.591 E8.19192
G1 X119.811 Y102.615 E8.23277
G1 X119.525 Y102.4 E8.24488
G1 X119.317 Y102.363 E8.25203
G1 X119.128 Y102.393 E8.25851
G1 X117.981 Y102.766 E8.29934
G1 X117.752 Y102.901 E8.30834
G1 X117.618 Y103.084 E8.31602
G1 X117.559 Y103.347 E8.32514
G1 X117.559 Y104.553 E8.36596
G1 X117.787 Y104.868 E8.37912
G1 X110.979 Y104.868 E8.60956
G1 X110.612 Y104.99 E8.62265
G1 X110.594 Y105.027 E8.62404
G1 X110.841 Y105.346 F7800
;TYPE:External perimeter
G1 F1800
G1 X110.775 Y105.479 E8.62907
G1 X110.775 Y129.521 E9.44286
G1 X110.856 Y129.684 E9.44902
G1 X110.979 Y129.725 E9.45341
G1 X118.023 Y129.725 E9.69184
;WIDTH:0.494831
G1 X118.442 Y129.748 E9.70761
;WIDTH:0.539663
G1 X118.86 Y129.772 E9.7249
;WIDTH:0.584495
G1 X119.279 Y129.795 E9.7438
G1 X118.858 Y129.962 E9.7642
;WIDTH:0.539663
G1 X118.482 Y130.107 E9.78085
;WIDTH:0.494831
G1 X118.107 Y130.253 E9.79597
;WIDTH:0.449999
G1 X117.966 Y130.447 E9.80409
G1 X117.966 Y131.723 E9.84728
G1 X118.107 Y131.847 E9.85364
G1 X119.305 Y132.236 E9.89627
G1 X119.482 Y132.146 E9.90299
G1 X120.215 Y131.136 E9.94523
G1 X120.191 Y130.93 E9.95225
;WIDTH:0.489781
G1 X119.498 Y129.942 E9.99709
;WIDTH:0.524898
G1 X119.438 Y129.894 E10.00017
;WIDTH:0.560014
G1 X119.377 Y129.846 E10.00351
;WIDTH:0.59513
G1 X119.317 Y129.798 E10.00704
G1 X119.411 Y129.78 E10.01143
;WIDTH:0.560014
G1 X119.505 Y129.762 E10.01555
;WIDTH:0.524898
G1 X119.599 Y129.745 E10.01938
;WIDTH:0.489781
G1 X120.805 Y129.725 E10.0642
;WIDTH:0.449999
G1 X125.775 Y129.725 E10.23243
G1 X125.775 Y134.275 E10.38644
G1 X109.225 Y134.275 E10.94664
G1 X109.225 Y100.725 E12.08227
G1 X125.775 Y100.725 E12.64247
G1 X125.775 Y105.275 E12.79648
G1 X120.805 Y105.275 E12.96471
;WIDTH:0.479216
G1 X120.202 Y105.26 E12.98659
;WIDTH:0.508433
G1 X119.599 Y105.246 E13.00994
;WIDTH:0.553874
G1 X119.482 Y105.223 E13.01501
;WIDTH:0.599314
G1 X119.365 Y105.2 E13.02053
G1 X119.435 Y105.132 E13.02504
;WIDTH:0.553874
G1 X119.506 Y105.063 E13.02925
;WIDTH:0.508433
G1 X119.848 Y104.566 E13.0526
;WIDTH:0.479216
G1 X120.191 Y104.07 E13.07448
;WIDTH:0.449999
G1 X120.23 Y103.949 E13.07878
G1 X120.191 Y103.83 E13.08302
G1 X119.482 Y102.854 E13.12385
G1 X119.387 Y102.782 E13.12788
G1 X119.254 Y102.78 E13.13238
G1 X118.041 Y103.174 E13.17555
G1 X117.966 Y103.347 E13.18193
G1 X117.966 Y104.553 E13.22275
G1 X118.107 Y104.747 E13.23087
;WIDTH:0.489746
G1 X118.387 Y104.859 E13.24207
;WIDTH:0.529492
G1 X118.668 Y104.971 E13.25431
;WIDTH:0.569238
G1 X118.949 Y105.083 E13.26755
;WIDTH:0.608984
G1 X119.23 Y105.196 E13.28181
G1 X118.928 Y105.215 E13.29605
;WIDTH:0.569238
G1 X118.626 Y105.235 E13.3093
;WIDTH:0.529492
G1 X118.325 Y105.255 E13.3215
;WIDTH:0.489746
G1 X118.023 Y105.275 E13.33274
;WIDTH:0.449999
G1 X110.979 Y105.275 E13.57117
G1 X110.881 Y105.307 E13.57466
G1 X110.784 Y105.695 F7800
G1 E11.57466 F2400
G92 E0
G1 X117.301 Y102.357 F7800
G1 E2 F2400
;TYPE:Solid infill
G1 F1200
G1 X116.995 Y102.748 E2.01681
G1 X116.858 Y103.189 E2.03244
G1 X116.848 Y104.156 E2.06517
G1 X110.931 Y104.166 E2.26545
G1 X110.346 Y104.359 E2.2863
G1 X110.345 Y101.845 E2.3714
G1 X118.357 Y101.852 E2.6426
G1 X118.38 Y101.886 E2.64399
G1 X117.771 Y102.085 E2.66568
G1 X117.477 Y102.255 E2.67718
G1 X116.849 Y102.258 E2.69844
G1 X116.574 Y102.693 E2.71586
G1 X116.451 Y103.185 E2.73303
G1 X116.445 Y103.748 E2.75209
G1 X110.995 Y103.748 E2.93657
G1 X110.753 Y103.796 E2.94492
G1 X110.752 Y102.252 E2.99718
G1 X116.645 Y102.257 E3.19665
G1 X116.067 Y102.732 E3.22197
;WIDTH:0.585347
G1 X116.022 Y102.879 E3.2289
G1 X115.976 Y103.274 E3.24684
G1 X115.719 Y103.274 E3.25843
;WIDTH:0.587271
G1 X111.228 Y103.273 E3.46171
G1 X111.228 Y102.728 E3.48638
G1 X115.863 Y102.731 E3.69617
G1 E1.69617 F2400
G92 E0
G1 X124.452 Y101.845 F7800
G1 E2 F2400
;WIDTH:0.449999
G1 F1200
G1 X119.979 Y101.848 E2.15141
G1 X119.981 Y101.885 E2.15266
G1 X120.396 Y102.208 E2.17046
G1 X121.093 Y103.168 E2.21062
G1 X121.257 Y103.478 E2.22249
G1 X121.338 Y103.996 E2.24024
G1 X121.292 Y104.156 E2.24588
G1 X124.656 Y104.156 E2.35975
G1 X124.656 Y101.845 E2.43797
G1 E.43797 F2400
G92 E0
G1 X121.053 Y102.419 F7800
G1 E2 F2400
G1 F1200
G1 X121.423 Y102.928 E2.0213
G1 X121.623 Y103.285 E2.03515
G1 X121.727 Y103.748 E2.05121
G1 X124.248 Y103.748 E2.13654
G1 X124.248 Y102.252 E2.18718
G1 X120.933 Y102.255 E2.29939
G1 X122.11 Y102.729 F7800
;WIDTH:0.586871
G1 F1200
G1 X121.859 Y102.729 E2.31074
G1 X122.062 Y103.104 E2.33003
G1 X122.113 Y103.273 E2.33801
;WIDTH:0.587325
G1 X123.773 Y103.273 E2.41315
G1 X123.773 Y102.728 E2.43782
G1 X122.314 Y102.729 E2.50387
G1 E.50387 F2400
G92 E0
G1 X121.292 Y130.844 F7800
G1 E2 F2400
;WIDTH:0.449999
G1 F1200
G1 X124.656 Y130.844 E2.11387
G1 X124.656 Y133.155 E2.19209
