; generated by PrusaSlicer 2.9.4 on 2026-05-07 at 03:02:26 UTC

; 

; external perimeters extrusion width = 0.45mm
; perimeters extrusion width = 0.45mm
; infill extrusion width = 0.45mm
; solid infill extrusion width = 0.45mm
; top infill extrusion width = 0.40mm
; first layer extrusion width = 0.60mm

M190 S60 ; set bed temperature and wait for it to be reached
M104 S215 ; set temperature
;TYPE:Custom
G28 ; home all axes
G1 Z5 F5000 ; lift nozzle
M109 S215 ; set temperature and wait for it to be reached
G21 ; set units to millimeters
G90 ; use absolute coordinates
M82 ; use absolute distances for extrusion
G92 E0
; Filament gcode
M107
;LAYER_CHANGE
;Z:0.3
;HEIGHT:0.3
G1 E-2 F2400
G92 E0
G1 Z.3 F7800
G92 E0
G1 X107.229 Y122.733
G1 E2 F2400
;TYPE:Perimeter
;WIDTH:0.6
G1 F1800
G1 X107.629 Y122.503 E2.03082
G1 X126.781 Y106.432 E3.70106
G1 X131.446 Y111.992 E4.18592
G1 X109.897 Y130.073 E6.06514
G1 X101.767 Y130.073 E6.60827
G1 X101.767 Y122.816 E7.09308
G1 X106.768 Y122.816 E7.42717
G1 X107.171 Y122.745 E7.45451
G1 X107.045 Y122.231 F7800
G1 F1800
G1 X107.285 Y122.092 E7.47304
G1 X126.847 Y105.678 E9.17899
G1 X132.2 Y112.058 E9.73536
G1 X110.092 Y130.609 E11.66337
G1 X101.232 Y130.609 E12.25527
G1 X101.232 Y122.28 E12.81169
G1 X106.768 Y122.28 E13.18152
G1 X106.986 Y122.242 E13.1963
G1 X106.854 Y121.713 F7800
;TYPE:External perimeter
G1 F1800
G1 X106.94 Y121.682 E13.20241
G1 X126.913 Y104.923 E14.9442
G1 X132.955 Y112.124 E15.57217
G1 X110.287 Y131.145 E17.54902
G1 X100.696 Y131.145 E18.18975
G1 X100.696 Y121.745 E18.81772
G1 X106.768 Y121.745 E19.22336
G1 X106.798 Y121.734 E19.22549
G1 X107.132 Y121.513 F7800
G1 E17.22549 F2400
G92 E0
G1 X131.083 Y112.087 F7800
G1 E2 F2400
;TYPE:Solid infill
;WIDTH:0.605163
G1 F1800
G1 X126.33 Y107.335 E2.45333
G1 X125.915 Y107.684 E2.4899
G1 X130.496 Y112.265 E2.92687
G1 X130.08 Y112.614 E2.9635
G1 X125.499 Y108.032 E3.40052
G1 X125.083 Y108.381 E3.43715
G1 X129.664 Y112.963 E3.87417
G1 X129.248 Y113.312 E3.9108
G1 X124.667 Y108.73 E4.34782
G1 X124.251 Y109.079 E4.38445
G1 X128.832 Y113.66 E4.82142
G1 X128.416 Y114.009 E4.85805
G1 X123.835 Y109.428 E5.29502
G1 X123.419 Y109.777 E5.33165
G1 X128.001 Y114.358 E5.76867
G1 X127.585 Y114.707 E5.8053
G1 X123.004 Y110.126 E6.24227
G1 X122.588 Y110.475 E6.2789
G1 X127.169 Y115.056 E6.71587
G1 X126.753 Y115.405 E6.7525
G1 X122.172 Y110.824 E7.18947
G1 X121.756 Y111.173 E7.2261
G1 X126.337 Y115.754 E7.66307
G1 X125.921 Y116.103 E7.6997
G1 X121.34 Y111.522 E8.13667
G1 X120.924 Y111.871 E8.1733
G1 X125.506 Y116.452 E8.61032
G1 X125.09 Y116.801 E8.64695
G1 X120.509 Y112.22 E9.08392
G1 X120.093 Y112.569 E9.12055
G1 X124.674 Y117.15 E9.55752
G1 X124.258 Y117.499 E9.59415
G1 X119.677 Y112.918 E10.03112
G1 X119.261 Y113.267 E10.06775
G1 X123.842 Y117.848 E10.50472
G1 X123.426 Y118.197 E10.54135
G1 X118.845 Y113.615 E10.97837
G1 X118.429 Y113.964 E11.015
G1 X123.01 Y118.546 E11.45202
G1 X122.595 Y118.895 E11.48859
G1 X118.013 Y114.313 E11.92566
G1 X117.598 Y114.662 E11.96223
G1 X122.179 Y119.243 E12.3992
G1 X121.763 Y119.592 E12.43583
G1 X117.182 Y115.011 E12.8728
G1 X116.766 Y115.36 E12.90943
G1 X121.347 Y119.941 E13.3464
G1 X120.931 Y120.29 E13.38303
G1 X116.35 Y115.709 E13.82
G1 X115.934 Y116.058 E13.85663
G1 X120.515 Y120.639 E14.2936
G1 X120.1 Y120.988 E14.33017
G1 X115.518 Y116.407 E14.76719
G1 X115.103 Y116.756 E14.80376
G1 X119.684 Y121.337 E15.24073
G1 X119.268 Y121.686 E15.27736
G1 X114.687 Y117.105 E15.71433
G1 X114.271 Y117.454 E15.75096
G1 X118.852 Y122.035 E16.18793
G1 X118.436 Y122.384 E16.22456
G1 X113.855 Y117.803 E16.66153
G1 X113.439 Y118.152 E16.69816
G1 X118.02 Y122.733 E17.13513
G1 X117.604 Y123.082 E17.17176
G1 X113.023 Y118.501 E17.60873
G1 X112.607 Y118.85 E17.64536
G1 X117.189 Y123.431 E18.08238
G1 X116.773 Y123.78 E18.11901
G1 X112.192 Y119.198 E18.55603
G1 X111.776 Y119.547 E18.59266
G1 X116.357 Y124.129 E19.02968
G1 X115.941 Y124.477 E19.06626
G1 X111.36 Y119.896 E19.50323
G1 X110.944 Y120.245 E19.53986
G1 X115.525 Y124.826 E19.97683
G1 X115.109 Y125.175 E20.01346
G1 X110.528 Y120.594 E20.45043
G1 X110.112 Y120.943 E20.48706
G1 X114.694 Y125.524 E20.92408
G1 X114.278 Y125.873 E20.96071
G1 X109.697 Y121.292 E21.39768
G1 X109.281 Y121.641 E21.43431
G1 X113.862 Y126.222 E21.87128
G1 X113.446 Y126.571 E21.90791
G1 X108.865 Y121.99 E22.34488
G1 X108.449 Y122.339 E22.38151
G1 X113.03 Y126.92 E22.81848
G1 X112.614 Y127.269 E22.85511
G1 X108.033 Y122.688 E23.29208
G1 X107.883 Y122.814 E23.30529
G1 X107.589 Y123.008 E23.32905
G1 X112.198 Y127.618 E23.76874
G1 X111.783 Y127.967 E23.80531
G1 X107.012 Y123.197 E24.26036
G1 X106.774 Y123.218 E24.27648
G1 X106.269 Y123.218 E24.31054
G1 X111.367 Y128.316 E24.79683
G1 X110.951 Y128.665 E24.83346
G1 X105.504 Y123.218 E25.35304
G1 X104.739 Y123.218 E25.40464
G1 X110.535 Y129.014 E25.95751
G1 X110.119 Y129.363 E25.99414
G1 X103.974 Y123.218 E26.5803
G1 X103.21 Y123.218 E26.63183
G1 X109.664 Y129.672 E27.24746
G1 X108.899 Y129.672 E27.29906
G1 X102.445 Y123.218 E27.91469
G1 X102.169 Y123.218 E27.93331
G1 X102.169 Y123.707 E27.96629
G1 X108.134 Y129.672 E28.53528
G1 X107.369 Y129.672 E28.58688
G1 X102.169 Y124.472 E29.0829
G1 X102.169 Y125.236 E29.13443
G1 X106.605 Y129.672 E29.55757
G1 X105.84 Y129.672 E29.60917
G1 X102.169 Y126.001 E29.95934
G1 X102.169 Y126.766 E30.01094
G1 X105.075 Y129.672 E30.28814
G1 X104.31 Y129.672 E30.33974
G1 X102.169 Y127.531 E30.54397
G1 X102.169 Y128.295 E30.5955
G1 X103.545 Y129.672 E30.7268
G1 X102.781 Y129.672 E30.77833
G1 X101.928 Y128.819 E30.8597
;LAYER_CHANGE
;Z:0.5
;HEIGHT:0.2
G1 E28.8597 F2400
G92 E0
G1 Z.5 F7800
G1 X107.115 Y122.421
G1 E2 F2400
;TYPE:Perimeter
;WIDTH:0.449999
G1 F3600
G1 X107.418 Y122.246 E2.01184
G1 X126.822 Y105.965 E2.86921
G1 X131.913 Y112.033 E3.13732
G1 X110.018 Y130.406 E4.1048
G1 X101.435 Y130.406 E4.39532
G1 X101.435 Y122.484 E4.66347
G1 X106.764 Y122.484 E4.84385
G1 X107.056 Y122.432 E4.85389
G1 X106.967 Y122.022 F7800
G1 F3600
G1 X107.157 Y121.934 E4.86098
G1 X126.872 Y105.391 E5.73212
G1 X132.487 Y112.083 E6.02781
G1 X110.166 Y130.813 E7.0141
G1 X101.028 Y130.813 E7.32341
G1 X101.028 Y122.077 E7.61911
G1 X106.85 Y122.077 E7.81618
G1 X106.912 Y122.048 E7.8185
G1 X106.83 Y121.646 F7800
;TYPE:External perimeter
G1 F1800
G1 X106.895 Y121.622 E7.82085
G1 X126.922 Y104.818 E8.70576
G1 X133.06 Y112.133 E9.02898
G1 X110.314 Y131.22 E10.03406
G1 X100.621 Y131.22 E10.36216
G1 X100.621 Y121.67 E10.68542
G1 X106.764 Y121.67 E10.89335
G1 X106.773 Y121.666 E10.89368
G1 X107.103 Y121.44 F7800
G1 E8.89368 F2400
G92 E0
G1 X101.851 Y122.822 F7800
G1 E2 F2400
;TYPE:Solid infill
;WIDTH:0.548766
G1 F1200
G1 X101.806 Y122.777 E2.00268
G1 X101.745 Y122.794 E2.00534
G1 X101.729 Y122.855 E2.00799
G1 X101.774 Y122.9 E2.01067
G1 X101.835 Y122.883 E2.01333
;WIDTH:0.449999
G1 X102.485 Y122.789 E2.03556
G1 X101.674 Y123.606 E2.07453
;WIDTH:0.41646
G1 X101.608 Y123.679 E2.07759
;WIDTH:0.38292
G1 X101.537 Y123.66 E2.07967
G1 X101.556 Y123.731 E2.08175
G1 X101.597 Y123.72 E2.08295
;WIDTH:0.449999
G1 X101.741 Y124.109 E2.09699
G1 X103.061 Y122.789 E2.16018
G1 X103.636 Y122.789 E2.17964
G1 X101.741 Y124.685 E2.27038
G1 X101.741 Y125.261 E2.28988
G1 X104.212 Y122.789 E2.40819
G1 X104.788 Y122.789 E2.42769
G1 X101.741 Y125.836 E2.57355
G1 X101.741 Y126.412 E2.59305
G1 X105.363 Y122.789 E2.76646
G1 X105.939 Y122.789 E2.78596
G1 X101.741 Y126.988 E2.98694
G1 X101.741 Y127.563 E3.0064
G1 X106.515 Y122.789 E3.23493
G1 E1.23493 F2400
G92 E0
G1 X108.87 Y121.226 F7800
G1 E2 F2400
;WIDTH:0.38292
G1 F1200
G1 X107.441 Y122.518 E2.05446
;WIDTH:0.41646
G1 X107.297 Y122.623 E2.06
;WIDTH:0.449999
G1 X107.153 Y122.727 E2.06601
G1 X101.741 Y128.139 E2.32508
G1 X101.741 Y128.715 E2.34458
G1 X109.859 Y120.597 E2.73318
G1 X110.146 Y120.333 E2.74638
;WIDTH:0.41593
G1 X112.448 Y118.224 E2.84321
G1 E.84321 F2400
G92 E0
G1 X116.026 Y115.222 F7800
G1 E2 F2400
G1 F1200
G1 X113.724 Y117.331 E2.09683
;WIDTH:0.449999
G1 X113.437 Y117.594 E2.11001
G1 X101.741 Y129.29 E2.66989
G1 X101.683 Y130.218 F7800
;WIDTH:0.38292
G1 F1200
G1 X101.642 Y130.229 E2.67109
G1 X101.622 Y130.158 E2.67318
G1 X101.694 Y130.177 E2.67529
;WIDTH:0.41646
G1 X101.717 Y130.022 E2.68016
;WIDTH:0.449999
G1 X101.741 Y129.866 E2.6855
G1 X117.015 Y114.592 E3.41666
G1 X117.302 Y114.328 E3.42986
;WIDTH:0.41593
G1 X119.604 Y112.219 E3.52669
G1 E1.52669 F2400
G92 E0
G1 X123.182 Y109.217 F7800
G1 E2 F2400
G1 F1200
G1 X120.88 Y111.326 E2.09683
;WIDTH:0.449999
G1 X120.593 Y111.59 E2.11003
G1 X102.082 Y130.1 E2.99612
G1 X102.658 Y130.1 E3.01562
G1 X124.17 Y108.588 E4.04539
G1 X124.458 Y108.324 E4.05861
;WIDTH:0.415932
G1 X126.76 Y106.215 E4.15544
;WIDTH:0.449999
G1 X126.855 Y106.479 E4.16494
G1 X103.234 Y130.1 E5.29566
G1 X103.809 Y130.1 E5.31512
G1 X127.117 Y106.792 E6.43086
G1 X127.38 Y107.105 E6.4447
G1 X104.385 Y130.1 E7.54546
G1 X104.961 Y130.1 E7.56496
G1 X127.643 Y107.418 E8.65073
G1 X127.905 Y107.731 E8.66455
G1 X105.536 Y130.1 E9.73534
G1 X106.112 Y130.1 E9.75484
G1 X128.168 Y108.044 E10.81065
G1 X128.431 Y108.357 E10.82449
G1 X106.688 Y130.1 E11.86531
G1 X107.263 Y130.1 E11.88477
G1 X128.693 Y108.67 E12.91061
G1 X128.956 Y108.983 E12.92445
G1 X107.839 Y130.1 E13.93531
G1 X108.415 Y130.1 E13.95481
G1 X129.219 Y109.296 E14.95068
G1 X129.481 Y109.609 E14.9645
G1 X108.991 Y130.1 E15.94537
G1 X109.44 Y130.304 E15.96206
;WIDTH:0.38292
G1 X109.399 Y130.315 E15.96326
G1 X109.38 Y130.244 E15.96534
G1 X109.451 Y130.263 E15.96742
;WIDTH:0.41646
G1 X109.509 Y130.182 E15.97051
;WIDTH:0.449999
G1 X109.566 Y130.1 E15.97389
G1 X129.744 Y109.922 E16.9398
G1 X130.007 Y110.236 E16.95366
G1 X111.368 Y128.874 E17.84587
G1 X111.081 Y129.138 E17.85907
;WIDTH:0.415928
G1 X109.938 Y130.185 E17.90715
G1 E15.90715 F2400
G92 E0
G1 X112.357 Y128.244 F7800
G1 E2 F2400
;WIDTH:0.415926
G1 F1200
G1 X114.659 Y126.135 E2.09683
;WIDTH:0.449999
G1 X114.946 Y125.871 E2.11003
G1 X130.269 Y110.549 E2.84351
G1 X130.532 Y110.862 E2.85735
G1 X118.524 Y122.869 E3.43214
G1 X118.237 Y123.133 E3.44534
;WIDTH:0.415926
G1 X115.935 Y125.242 E3.54217
G1 E1.54217 F2400
G92 E0
G1 X119.513 Y122.24 F7800
G1 E2 F2400
G1 F1200
G1 X121.814 Y120.131 E2.09681
;WIDTH:0.449999
G1 X122.102 Y119.867 E2.11003
G1 X130.795 Y111.175 E2.52613
G1 X131.057 Y111.488 E2.53995
G1 X125.68 Y116.865 E2.79734
G1 X125.392 Y117.128 E2.81054
;WIDTH:0.415926
G1 X123.091 Y119.238 E2.90737
G1 E.90737 F2400
G92 E0
G1 X126.669 Y116.235 F7800
G1 E2 F2400
;WIDTH:0.425934
G1 F1200
G1 X127.369 Y115.593 E2.03025
;WIDTH:0.468948
G1 X128.07 Y114.951 E2.06392
;WIDTH:0.511961
G1 X128.771 Y114.309 E2.10099
;WIDTH:0.554975
G1 X129.471 Y113.667 E2.14143
;WIDTH:0.597989
G1 X130.172 Y113.025 E2.1853
;WIDTH:0.641002
G1 X130.873 Y112.383 E2.23257
;WIDTH:0.449999
G1 X131.269 Y112.234 E2.24689
;WIDTH:0.406341
G1 X131.203 Y112.259 E2.24902
;WIDTH:0.453273
G1 X131.137 Y112.284 E2.25143
;WIDTH:0.500205
G1 X131.071 Y112.309 E2.25411
;WIDTH:0.547138
G1 X131.005 Y112.333 E2.25705
;WIDTH:0.59407
G1 X130.939 Y112.358 E2.26028
;WIDTH:0.641002
G1 X130.873 Y112.383 E2.26379
G1 X130.903 Y112.319 E2.26731
;WIDTH:0.59407
G1 X130.934 Y112.256 E2.27053
;WIDTH:0.547138
G1 X130.964 Y112.192 E2.27349
;WIDTH:0.500205
G1 X130.995 Y112.128 E2.27619
;WIDTH:0.453273
G1 X131.025 Y112.065 E2.27857
;WIDTH:0.406341
G1 X131.056 Y112.001 E2.28072
;WIDTH:0.367963
G1 X131.323 Y111.74 E2.29081
G1 X131.541 Y112 E2.29998
G1 X131.424 Y112.101 E2.30416
;LAYER_CHANGE
;Z:0.7
;HEIGHT:0.2
G1 E.30416 F2400
G92 E0
G1 Z.7 F7800
G1 X107.115 Y122.421
G1 E2 F2400
;TYPE:Perimeter
;WIDTH:0.449999
G1 F3600
G1 X107.418 Y122.246 E2.01184
G1 X126.822 Y105.965 E2.86921
G1 X131.913 Y112.033 E3.13732
G1 X110.018 Y130.406 E4.1048
G1 X101.435 Y130.406 E4.39532
G1 X101.435 Y122.484 E4.66347
G1 X106.764 Y122.484 E4.84385
G1 X107.056 Y122.432 E4.85389
G1 X106.967 Y122.022 F7800
G1 F3600
G1 X107.157 Y121.934 E4.86098
G1 X126.872 Y105.391 E5.73212
G1 X132.487 Y112.083 E6.02781
G1 X110.166 Y130.813 E7.0141
G1 X101.028 Y130.813 E7.32341
G1 X101.028 Y122.077 E7.61911
G1 X106.85 Y122.077 E7.81618
G1 X106.912 Y122.048 E7.8185
G1 X106.83 Y121.646 F7800
;TYPE:External perimeter
G1 F1800
G1 X106.895 Y121.622 E7.82085
G1 X126.922 Y104.818 E8.70576
G1 X133.06 Y112.133 E9.02898
G1 X110.314 Y131.22 E10.03406
G1 X100.621 Y131.22 E10.36216
G1 X100.621 Y121.67 E10.68542
G1 X106.764 Y121.67 E10.89335
G1 X106.773 Y121.666 E10.89368
G1 X107.103 Y121.44 F7800
G1 E8.89368 F2400
G92 E0
G1 X101.774 Y129.99 F7800
G1 E2 F2400
;TYPE:Solid infill
;WIDTH:0.548766
G1 F1200
G1 X101.729 Y130.034 E2.00265
G1 X101.745 Y130.096 E2.00534
G1 X101.806 Y130.112 E2.00799
G1 X101.851 Y130.067 E2.01067
G1 X101.835 Y130.006 E2.01332
;WIDTH:0.449999
G1 X102.485 Y130.1 E2.03555
G1 X101.741 Y129.356 E2.07116
G1 X101.669 Y129.263 E2.07514
;WIDTH:0.41646
G1 X101.597 Y129.17 E2.07879
;WIDTH:0.38292
G1 X101.608 Y129.211 E2.07999
G1 X101.537 Y129.23 E2.08207
G1 X101.556 Y129.159 E2.08415
;WIDTH:0.449999
G1 X101.741 Y128.78 E2.09843
G1 X103.061 Y130.1 E2.16162
G1 X103.636 Y130.1 E2.18108
G1 X101.741 Y128.205 E2.27179
G1 X101.741 Y127.629 E2.29129
G1 X104.212 Y130.1 E2.40958
G1 X104.788 Y130.1 E2.42908
G1 X101.741 Y127.053 E2.57494
G1 X101.741 Y126.477 E2.59444
G1 X105.363 Y130.1 E2.76785
G1 X105.939 Y130.1 E2.78735
G1 X101.741 Y125.902 E2.98831
G1 X101.741 Y125.326 E3.00781
G1 X106.515 Y130.1 E3.23634
G1 X107.09 Y130.1 E3.2558
G1 X101.741 Y124.75 E3.51188
G1 X101.741 Y124.175 E3.53134
G1 X107.666 Y130.1 E3.81497
G1 X108.242 Y130.1 E3.83447
G1 X101.741 Y123.599 E4.14567
G1 X101.741 Y123.023 E4.16517
G1 X108.818 Y130.1 E4.50394
G1 X109.393 Y130.1 E4.5234
G1 X102.082 Y122.789 E4.87337
G1 X102.658 Y122.789 E4.89287
G1 X109.941 Y130.072 E5.2415
G1 X110.254 Y129.809 E5.25534
G1 X103.234 Y122.789 E5.59138
G1 X103.809 Y122.789 E5.61084
G1 X110.567 Y129.547 E5.93434
G1 X110.88 Y129.284 E5.94818
G1 X104.385 Y122.789 E6.25909
G1 X104.961 Y122.789 E6.27859
G1 X111.193 Y129.021 E6.57691
G1 X111.506 Y128.759 E6.59073
G1 X105.536 Y122.789 E6.87651
G1 X106.112 Y122.789 E6.89601
G1 X111.819 Y128.496 E7.1692
G1 X112.132 Y128.233 E7.18304
G1 X106.688 Y122.789 E7.44364
G1 X106.63 Y122.687 E7.44761
;WIDTH:0.41646
G1 X106.572 Y122.585 E7.45125
;WIDTH:0.38292
G1 X106.583 Y122.626 E7.45245
G1 X106.512 Y122.645 E7.45453
G1 X106.531 Y122.574 E7.45661
;WIDTH:0.449999
G1 X107.191 Y122.717 E7.47947
G1 X112.445 Y127.971 E7.73098
G1 X112.758 Y127.708 E7.74482
G1 X107.565 Y122.515 E7.99341
G1 X107.881 Y122.256 E8.00724
G1 X113.071 Y127.445 E8.25566
G1 X113.384 Y127.183 E8.26948
G1 X108.194 Y121.993 E8.51792
G1 X108.508 Y121.73 E8.53178
G1 X113.697 Y126.92 E8.7802
G1 X114.01 Y126.657 E8.79404
G1 X108.821 Y121.468 E9.04243
G1 X109.134 Y121.205 E9.05627
G1 X114.323 Y126.395 E9.30469
G1 X114.636 Y126.132 E9.31853
G1 X109.447 Y120.942 E9.56695
G1 X109.76 Y120.68 E9.58077
G1 X114.949 Y125.869 E9.82916
G1 X115.262 Y125.607 E9.84298
G1 X110.073 Y120.417 E10.0914
G1 X110.386 Y120.154 E10.10524
G1 X115.575 Y125.344 E10.35366
G1 X115.888 Y125.081 E10.3675
G1 X110.699 Y119.892 E10.61589
G1 X111.012 Y119.629 E10.62973
G1 X116.201 Y124.819 E10.87815
G1 X116.514 Y124.556 E10.89199
G1 X111.325 Y119.366 E11.14041
G1 X111.638 Y119.104 E11.15423
G1 X116.827 Y124.293 E11.40262
G1 X117.14 Y124.031 E11.41644
G1 X111.951 Y118.841 E11.66486
G1 X112.264 Y118.578 E11.6787
G1 X117.453 Y123.768 E11.92712
G1 X117.766 Y123.505 E11.94096
G1 X112.577 Y118.316 E12.18935
G1 X112.89 Y118.053 E12.20319
G1 X118.079 Y123.243 E12.45161
G1 X118.392 Y122.98 E12.46545
G1 X113.203 Y117.79 E12.71387
G1 X113.516 Y117.528 E12.72769
G1 X118.705 Y122.717 E12.97608
G1 X119.019 Y122.455 E12.98992
G1 X113.829 Y117.265 E13.23836
G1 X114.142 Y117.002 E13.2522
G1 X119.332 Y122.192 E13.50064
G1 X119.645 Y121.929 E13.51448
G1 X114.455 Y116.74 E13.7629
G1 X114.768 Y116.477 E13.77674
G1 X119.958 Y121.667 E14.02518
G1 X120.271 Y121.404 E14.03902
G1 X115.081 Y116.214 E14.28746
G1 X115.394 Y115.952 E14.30128
G1 X120.584 Y121.141 E14.5497
G1 X120.897 Y120.879 E14.56352
G1 X115.707 Y115.689 E14.81196
G1 X116.02 Y115.426 E14.8258
G1 X121.21 Y120.616 E15.07424
G1 X121.523 Y120.353 E15.08808
