; generated by PrusaSlicer 2.9.4 on 2026-05-06 at 17:31:29 UTC

; 

; external perimeters extrusion width = 0.45mm
; perimeters extrusion width = 0.45mm
; infill extrusion width = 0.45mm
; solid infill extrusion width = 0.45mm
; top infill extrusion width = 0.40mm
; first layer extrusion width = 0.60mm

M190 S60 ; set bed temperature and wait for it to be reached
M104 S215 ; set temperature
;TYPE:Custom
G92 E0 ; Reset Extruder
G28 ; Home all axes
G1 Z2.0 F3000 ; Move Z Axis up little to prevent scratching of Heat Bed
G1 X0.1 Y20 Z0.3 F5000.0 ; Move to start position
G1 X0.1 Y200.0 Z0.3 F1500.0 E15 ; Draw the first line
G1 X0.4 Y200.0 Z0.3 F5000.0 ; Move to side a little
G1 X0.4 Y20 Z0.3 F1500.0 E30 ; Draw the second line
G92 E0 ; Reset Extruder
G1 Z2.0 F3000 ; Move Z Axis up little to prevent scratching of Heat Bed
G1 X5 Y20 Z0.3 F5000.0 ; Move over to prevent blob squish
M109 S215 ; set temperature and wait for it to be reached
G21 ; set units to millimeters
G90 ; use absolute coordinates
M82 ; use absolute distances for extrusion
G92 E0
; Filament gcode
M107
;LAYER_CHANGE
;Z:0.3
;HEIGHT:0.3
G1 E-2 F2400
G92 E0
G1 Z.3 F7800
G1 X77.714 Y85.262
G1 E2 F2400
;TYPE:Skirt/Brim
;WIDTH:0.6
G1 F1800
G1 X78.906 Y84.279 E2.10322
G1 X79.841 Y83.677 E2.17751
G1 X80.831 Y83.17 E2.25182
G1 X81.866 Y82.762 E2.32614
G1 X82.936 Y82.458 E2.40045
G1 X84.031 Y82.26 E2.47479
G1 X85.14 Y82.17 E2.54912
G1 X149.86 Y82.17 E6.87277
G1 X151.357 Y82.317 E6.97326
G1 X152.445 Y82.553 E7.04763
G1 X153.503 Y82.894 E7.12189
G1 X154.523 Y83.338 E7.19621
G1 X155.495 Y83.879 E7.27053
G1 X156.967 Y84.97 E7.39293
G1 X157.766 Y85.743 E7.4672
G1 X158.486 Y86.59 E7.54147
G1 X159.121 Y87.505 E7.61587
G1 X159.643 Y88.44 E7.68741
G1 X160.09 Y89.457 E7.76162
G1 X160.436 Y90.518 E7.83617
G1 X160.738 Y92.017 E7.93832
G1 X160.838 Y93.485 E8.03662
G1 X160.811 Y142.253 E11.29459
G1 X160.683 Y143.357 E11.36884
G1 X160.447 Y144.443 E11.44308
G1 X160.105 Y145.504 E11.51755
G1 X159.663 Y146.523 E11.59175
G1 X158.72 Y148.095 E11.71421
G1 X158.03 Y148.967 E11.7885
G1 X157.257 Y149.766 E11.86277
G1 X156.41 Y150.486 E11.93704
G1 X155.495 Y151.121 E12.01144
G1 X154.168 Y151.83 E12.11195
G1 X153.134 Y152.238 E12.18621
G1 X152.063 Y152.542 E12.26059
G1 X150.969 Y152.74 E12.33486
G1 X149.861 Y152.83 E12.40912
G1 X85.5 Y152.839 E16.70878
G1 X84.031 Y152.74 E16.80714
G1 X82.938 Y152.543 E16.88133
G1 X81.865 Y152.237 E16.95587
G1 X80.832 Y151.83 E17.03004
G1 X79.842 Y151.323 E17.10435
G1 X78.905 Y150.72 E17.17879
G1 X78.034 Y150.03 E17.25302
G1 X77.234 Y149.257 E17.32734
G1 X76.539 Y148.441 E17.39895
G1 X75.879 Y147.495 E17.47601
G1 X75.188 Y146.206 E17.57372
G1 X74.776 Y145.173 E17.64802
G1 X74.468 Y144.104 E17.72234
G1 X74.193 Y142.294 E17.84465
G1 X74.161 Y93.5 E21.10435
G1 X74.255 Y92.072 E21.19995
G1 X74.449 Y90.977 E21.27424
G1 X74.75 Y89.906 E21.34856
G1 X75.154 Y88.87 E21.42285
G1 X75.657 Y87.878 E21.49715
G1 X76.256 Y86.94 E21.5715
G1 X76.943 Y86.066 E21.64577
G1 X77.672 Y85.305 E21.71617
G1 X78.058 Y85.675 F7800
G1 F1800
G1 X78.075 Y85.658 E21.71778
G1 X79.225 Y84.71 E21.81734
G1 X80.117 Y84.137 E21.88817
G1 X81.06 Y83.654 E21.95895
G1 X82.047 Y83.267 E22.02977
G1 X83.067 Y82.977 E22.10061
G1 X84.11 Y82.789 E22.17141
G1 X85.166 Y82.705 E22.24218
G1 X149.834 Y82.705 E26.56235
G1 X151.279 Y82.847 E26.65935
G1 X152.315 Y83.073 E26.73019
G1 X153.323 Y83.399 E26.80096
G1 X154.294 Y83.822 E26.87172
G1 X155.22 Y84.339 E26.94257
G1 X156.607 Y85.367 E27.0579
G1 X157.37 Y86.103 E27.12872
G1 X158.056 Y86.909 E27.19943
G1 X158.661 Y87.78 E27.27028
G1 X159.16 Y88.671 E27.3385
G1 X159.586 Y89.64 E27.40921
G1 X159.917 Y90.65 E27.48021
G1 X160.208 Y92.095 E27.57868
G1 X160.303 Y93.485 E27.67176
G1 X160.276 Y142.227 E30.92799
G1 X160.153 Y143.279 E30.99875
G1 X159.928 Y144.313 E31.06944
G1 X159.601 Y145.323 E31.14036
G1 X159.178 Y146.294 E31.21112
G1 X158.29 Y147.776 E31.32654
G1 X157.633 Y148.607 E31.39731
G1 X156.898 Y149.369 E31.46804
G1 X156.091 Y150.056 E31.53884
G1 X155.22 Y150.662 E31.60973
G1 X153.939 Y151.346 E31.70674
G1 X152.954 Y151.733 E31.77744
G1 X151.933 Y152.023 E31.84835
G1 X150.89 Y152.21 E31.91914
G1 X149.834 Y152.295 E31.98991
G1 X85.5 Y152.303 E36.28777
G1 X84.11 Y152.21 E36.38084
G1 X83.068 Y152.023 E36.45156
G1 X82.046 Y151.733 E36.52253
G1 X81.061 Y151.346 E36.59323
G1 X80.117 Y150.863 E36.66407
G1 X79.224 Y150.29 E36.73495
G1 X78.394 Y149.633 E36.80567
G1 X77.631 Y148.898 E36.87645
G1 X76.968 Y148.121 E36.94469
G1 X76.339 Y147.22 E37.0181
G1 X75.671 Y145.975 E37.11249
G1 X75.28 Y144.99 E37.18329
G1 X74.987 Y143.972 E37.25406
G1 X74.727 Y142.265 E37.36941
G1 X74.697 Y93.5 E40.62718
G1 X74.785 Y92.149 E40.71763
G1 X74.969 Y91.105 E40.78845
G1 X75.255 Y90.085 E40.85922
G1 X75.639 Y89.097 E40.93003
G1 X76.118 Y88.152 E41.00081
G1 X76.687 Y87.258 E41.0716
G1 X77.341 Y86.424 E41.1424
G1 X78.017 Y85.718 E41.2077
G1 X78.396 Y86.109 F7800
G1 F1800
G1 X78.737 Y85.779 E41.2394
G1 X80.055 Y84.798 E41.34916
G1 X81.858 Y83.903 E41.48363
G1 X83.197 Y83.497 E41.5771
G1 X85.192 Y83.24 E41.71148
G1 X149.808 Y83.24 E46.02818
G1 X151.804 Y83.497 E46.16262
G1 X153.71 Y84.138 E46.29696
G1 X155.456 Y85.14 E46.43145
G1 X156.538 Y86.028 E46.52496
G1 X157.86 Y87.543 E46.65929
G1 X158.846 Y89.256 E46.79133
G1 X159.398 Y90.782 E46.89974
G1 X159.738 Y92.762 E47.03395
G1 X159.741 Y142.2 E50.33668
G1 X159.408 Y144.183 E50.47101
G1 X158.694 Y146.065 E50.60548
G1 X157.626 Y147.772 E50.74
G1 X156.247 Y149.236 E50.87436
G1 X154.944 Y150.202 E50.98272
G1 X153.143 Y151.097 E51.11707
G1 X151.802 Y151.503 E51.21067
G1 X149.808 Y151.76 E51.34498
G1 X85.5 Y151.768 E55.6411
G1 X84.188 Y151.681 E55.72894
G1 X83.198 Y151.503 E55.79614
G1 X81.29 Y150.862 E55.93061
G1 X79.543 Y149.86 E56.06515
G1 X78.753 Y149.236 E56.1324
G1 X77.774 Y148.258 E56.22485
G1 X76.798 Y146.945 E56.33414
G1 X75.917 Y145.177 E56.4661
G1 X75.384 Y143.237 E56.6005
G1 X75.242 Y141.845 E56.69398
G1 X75.232 Y93.5 E59.92369
G1 X75.315 Y92.226 E60.00898
G1 X75.489 Y91.234 E60.07626
G1 X76.124 Y89.324 E60.21073
G1 X76.779 Y88.088 E60.30418
G1 X77.351 Y87.259 E60.37147
G1 X78.002 Y86.49 E60.43878
G1 X78.353 Y86.151 E60.47138
G1 E58.47138 F2400
G92 E0
G92 E0
G1 X143.857 Y95.041 F7800
G1 E2 F2400
;TYPE:Perimeter
;WIDTH:0.6
G1 F1800
G1 X144.244 Y94.811 E2.03007
G1 X144.793 Y94.618 E2.06895
G1 X145.362 Y94.535 E2.10736
G1 X145.946 Y94.566 E2.14643
G1 X146.513 Y94.711 E2.18553
G1 X147.038 Y94.962 E2.22441
G1 X147.504 Y95.311 E2.2633
G1 X147.892 Y95.744 E2.30214
G1 X148.189 Y96.244 E2.34099
G1 X148.382 Y96.793 E2.37987
G1 X148.465 Y97.369 E2.41875
G1 X148.434 Y97.95 E2.45762
G1 X148.289 Y98.514 E2.49652
G1 X148.038 Y99.038 E2.53533
G1 X147.689 Y99.504 E2.57422
G1 X147.256 Y99.892 E2.61306
G1 X146.756 Y100.189 E2.65191
G1 X146.207 Y100.382 E2.69079
G1 X145.631 Y100.465 E2.72967
G1 X145.05 Y100.434 E2.76854
G1 X144.487 Y100.289 E2.80738
G1 X143.962 Y100.038 E2.84626
G1 X143.496 Y99.689 E2.88515
G1 X143.108 Y99.256 E2.92399
G1 X142.811 Y98.756 E2.96284
G1 X142.618 Y98.207 E3.00172
G1 X142.535 Y97.631 E3.0406
G1 X142.566 Y97.05 E3.07947
G1 X142.711 Y96.486 E3.11837
G1 X142.962 Y95.962 E3.15718
G1 X143.311 Y95.496 E3.19607
G1 X143.744 Y95.108 E3.23491
G1 X143.805 Y95.071 E3.23968
G1 X144.152 Y95.482 F7800
G1 F1800
G1 X144.214 Y95.434 E3.24492
G1 X144.642 Y95.223 E3.2768
G1 X145.102 Y95.1 E3.30861
G1 X145.571 Y95.068 E3.34001
G1 X146.052 Y95.13 E3.37241
G1 X146.503 Y95.283 E3.40423
G1 X146.917 Y95.522 E3.43617
G1 X147.275 Y95.836 E3.46798
G1 X147.566 Y96.214 E3.49985
G1 X147.777 Y96.642 E3.53173
G1 X147.901 Y97.103 E3.56362
G1 X147.932 Y97.579 E3.59549
G1 X147.87 Y98.052 E3.62736
G1 X147.717 Y98.503 E3.65918
G1 X147.478 Y98.917 E3.69112
G1 X147.164 Y99.275 E3.72293
G1 X146.786 Y99.566 E3.7548
G1 X146.358 Y99.777 E3.78668
G1 X145.897 Y99.901 E3.81857
G1 X145.421 Y99.932 E3.85044
G1 X144.948 Y99.87 E3.88231
G1 X144.497 Y99.717 E3.91413
G1 X144.083 Y99.478 E3.94607
G1 X143.725 Y99.164 E3.97788
G1 X143.522 Y98.917 E3.99924
G1 X143.262 Y98.461 E4.03431
G1 X143.107 Y97.954 E4.06973
G1 X143.068 Y97.421 E4.10543
G1 X143.13 Y96.948 E4.1373
G1 X143.283 Y96.497 E4.16912
G1 X143.522 Y96.083 E4.20106
G1 X143.836 Y95.725 E4.23287
G1 X144.104 Y95.519 E4.25545
G1 X144.446 Y95.923 F7800
;TYPE:External perimeter
G1 F1800
G1 X144.467 Y95.907 E4.25721
G1 X144.798 Y95.736 E4.2821
G1 X145.155 Y95.633 E4.30692
G1 X145.52 Y95.601 E4.3314
G1 X145.896 Y95.643 E4.35668
G1 X146.251 Y95.756 E4.38157
G1 X146.577 Y95.936 E4.40645
G1 X146.861 Y96.176 E4.43129
G1 X147.093 Y96.467 E4.45615
G1 X147.264 Y96.798 E4.48104
G1 X147.368 Y97.155 E4.50588
G1 X147.399 Y97.526 E4.53075
G1 X147.357 Y97.896 E4.55563
G1 X147.244 Y98.251 E4.58052
G1 X147.064 Y98.577 E4.6054
G1 X146.824 Y98.861 E4.63024
G1 X146.533 Y99.093 E4.6551
G1 X146.202 Y99.264 E4.67999
G1 X145.845 Y99.368 E4.70483
G1 X145.474 Y99.399 E4.7297
G1 X145.104 Y99.357 E4.75458
G1 X144.749 Y99.244 E4.77947
G1 X144.423 Y99.064 E4.80435
G1 X144.139 Y98.824 E4.82919
G1 X143.936 Y98.577 E4.85055
G1 X143.736 Y98.202 E4.87894
G1 X143.632 Y97.845 E4.90378
G1 X143.601 Y97.474 E4.92865
G1 X143.643 Y97.104 E4.95353
G1 X143.756 Y96.749 E4.97842
G1 X143.936 Y96.423 E5.0033
G1 X144.176 Y96.139 E5.02814
G1 X144.399 Y95.96 E5.04724
G1 X144.748 Y95.764 F7800
G1 E3.04724 F2400
G92 E0
G1 X148.401 Y136.923 F7800
G1 E2 F2400
;TYPE:Perimeter
G1 F1800
G1 X148.465 Y137.369 E2.0301
G1 X148.434 Y137.949 E2.0689
G1 X148.289 Y138.514 E2.10787
G1 X148.038 Y139.038 E2.14668
G1 X147.689 Y139.504 E2.18557
G1 X147.256 Y139.892 E2.22441
G1 X146.756 Y140.189 E2.26326
G1 X146.207 Y140.382 E2.30214
G1 X145.631 Y140.465 E2.34102
G1 X145.051 Y140.434 E2.37982
G1 X144.486 Y140.289 E2.41879
G1 X143.962 Y140.038 E2.4576
G1 X143.496 Y139.689 E2.49649
G1 X143.108 Y139.256 E2.53533
G1 X142.811 Y138.756 E2.57418
G1 X142.618 Y138.207 E2.61306
G1 X142.535 Y137.631 E2.65194
G1 X142.566 Y137.051 E2.69074
G1 X142.711 Y136.486 E2.72971
G1 X142.962 Y135.962 E2.76852
G1 X143.443 Y135.357 E2.82015
G1 X143.864 Y135.019 E2.85622
G1 X144.315 Y134.776 E2.89044
G1 X144.793 Y134.618 E2.92407
G1 X145.362 Y134.535 E2.96248
G1 X145.946 Y134.566 E3.00155
G1 X146.514 Y134.711 E3.04071
G1 X147.038 Y134.962 E3.07952
G1 X147.504 Y135.311 E3.11841
G1 X147.892 Y135.744 E3.15725
G1 X148.189 Y136.244 E3.1961
G1 X148.382 Y136.793 E3.23498
G1 X148.393 Y136.864 E3.23978
G1 X147.88 Y137.027 F7800
G1 F1800
G1 X147.901 Y137.103 E3.24505
G1 X147.932 Y137.579 E3.27692
G1 X147.87 Y138.052 E3.30879
G1 X147.717 Y138.503 E3.34061
G1 X147.478 Y138.917 E3.37255
G1 X147.164 Y139.275 E3.40436
G1 X146.786 Y139.566 E3.43623
G1 X146.358 Y139.777 E3.46811
G1 X145.897 Y139.901 E3.5
G1 X145.421 Y139.932 E3.53187
G1 X144.948 Y139.87 E3.56374
G1 X144.497 Y139.717 E3.59556
G1 X144.083 Y139.478 E3.6275
G1 X143.725 Y139.164 E3.65931
G1 X143.434 Y138.786 E3.69118
G1 X143.223 Y138.358 E3.72306
G1 X143.099 Y137.897 E3.75495
G1 X143.068 Y137.421 E3.78682
G1 X143.13 Y136.948 E3.81869
G1 X143.283 Y136.497 E3.85051
G1 X143.522 Y136.083 E3.88245
G1 X143.837 Y135.724 E3.91436
G1 X144.214 Y135.434 E3.94613
G1 X144.642 Y135.223 E3.97801
G1 X145.102 Y135.099 E4.00984
G1 X145.571 Y135.068 E4.04124
G1 X146.052 Y135.13 E4.07364
G1 X146.503 Y135.283 E4.10546
G1 X146.917 Y135.522 E4.1374
G1 X147.275 Y135.836 E4.16921
G1 X147.566 Y136.214 E4.20108
G1 X147.777 Y136.642 E4.23296
G1 X147.865 Y136.969 E4.25558
G1 X147.36 Y137.13 F7800
;TYPE:External perimeter
G1 F1800
G1 X147.368 Y137.155 E4.25733
G1 X147.399 Y137.526 E4.2822
G1 X147.357 Y137.896 E4.30708
G1 X147.244 Y138.251 E4.33197
G1 X147.064 Y138.577 E4.35685
G1 X146.824 Y138.861 E4.38169
G1 X146.533 Y139.094 E4.40659
G1 X146.202 Y139.264 E4.43145
G1 X145.845 Y139.368 E4.45629
G1 X145.474 Y139.399 E4.48116
G1 X145.104 Y139.357 E4.50604
G1 X144.749 Y139.244 E4.53093
G1 X144.423 Y139.064 E4.55581
G1 X144.139 Y138.824 E4.58065
G1 X143.907 Y138.533 E4.60551
G1 X143.736 Y138.202 E4.6304
G1 X143.632 Y137.845 E4.65524
G1 X143.601 Y137.474 E4.68011
G1 X143.643 Y137.104 E4.70499
G1 X143.756 Y136.749 E4.72988
G1 X143.936 Y136.423 E4.75476
G1 X144.177 Y136.138 E4.77969
G1 X144.467 Y135.907 E4.80446
G1 X144.798 Y135.736 E4.82935
G1 X145.155 Y135.632 E4.85419
G1 X145.52 Y135.601 E4.87866
G1 X145.896 Y135.643 E4.90394
G1 X146.251 Y135.756 E4.92883
G1 X146.577 Y135.936 E4.95371
G1 X146.861 Y136.176 E4.97855
G1 X147.093 Y136.467 E5.00341
G1 X147.264 Y136.798 E5.0283
G1 X147.344 Y137.072 E5.04737
G1 X147.392 Y137.469 F7800
G1 E3.04737 F2400
G92 E0
G1 X88.642 Y140.329 F7800
G1 E2 F2400
;TYPE:Perimeter
G1 F1800
G1 X88.486 Y140.289 E2.01076
G1 X87.962 Y140.038 E2.04957
G1 X87.496 Y139.689 E2.08846
G1 X87.108 Y139.256 E2.1273
G1 X86.811 Y138.756 E2.16615
G1 X86.618 Y138.207 E2.20503
G1 X86.535 Y137.631 E2.24391
G1 X86.566 Y137.05 E2.28278
G1 X86.711 Y136.487 E2.32162
G1 X86.962 Y135.962 E2.3605
G1 X87.311 Y135.496 E2.39939
G1 X87.744 Y135.108 E2.43823
G1 X88.244 Y134.811 E2.47708
G1 X88.793 Y134.618 E2.51596
G1 X89.362 Y134.535 E2.55437
G1 X89.946 Y134.566 E2.59344
G1 X90.514 Y134.711 E2.6326
G1 X91.038 Y134.962 E2.67141
G1 X91.503 Y135.31 E2.71021
G1 X91.892 Y135.744 E2.74915
G1 X92.189 Y136.244 E2.788
G1 X92.382 Y136.793 E2.82688
G1 X92.465 Y137.369 E2.86576
G1 X92.434 Y137.95 E2.90463
G1 X92.289 Y138.513 E2.94347
G1 X92.038 Y139.038 E2.98235
G1 X91.689 Y139.504 E3.02124
G1 X91.256 Y139.892 E3.06008
G1 X90.756 Y140.189 E3.09893
G1 X90.207 Y140.382 E3.13781
G1 X89.631 Y140.465 E3.17669
G1 X89.05 Y140.434 E3.21556
G1 X88.7 Y140.344 E3.2397
G1 X88.797 Y139.818 F7800
G1 F1800
G1 X88.497 Y139.717 E3.26085
G1 X88.083 Y139.478 E3.29279
G1 X87.725 Y139.164 E3.3246
G1 X87.434 Y138.786 E3.35647
G1 X87.223 Y138.358 E3.38835
G1 X87.099 Y137.897 E3.42024
G1 X87.068 Y137.421 E3.45211
G1 X87.13 Y136.948 E3.48398
G1 X87.283 Y136.497 E3.5158
G1 X87.434 Y136.214 E3.53723
G1 X87.836 Y135.725 E3.57952
G1 X88.214 Y135.434 E3.61139
G1 X88.642 Y135.223 E3.64327
G1 X89.102 Y135.099 E3.6751
G1 X89.571 Y135.068 E3.7065
G1 X90.052 Y135.13 E3.7389
G1 X90.503 Y135.283 E3.77072
G1 X90.917 Y135.522 E3.80266
G1 X91.275 Y135.836 E3.83447
G1 X91.566 Y136.214 E3.86634
G1 X91.777 Y136.642 E3.89822
G1 X91.901 Y137.103 E3.93011
G1 X91.932 Y137.579 E3.96198
G1 X91.87 Y138.052 E3.99385
G1 X91.717 Y138.503 E4.02567
G1 X91.478 Y138.917 E4.05761
G1 X91.164 Y139.275 E4.08942
G1 X90.786 Y139.566 E4.12129
G1 X90.358 Y139.777 E4.15317
G1 X89.897 Y139.901 E4.18506
G1 X89.421 Y139.932 E4.21693
G1 X88.948 Y139.87 E4.2488
G1 X88.853 Y139.838 E4.2555
G1 X88.951 Y139.309 F7800
;TYPE:External perimeter
G1 F1800
G1 X88.749 Y139.244 E4.26968
G1 X88.423 Y139.064 E4.29456
G1 X88.139 Y138.824 E4.3194
G1 X87.907 Y138.533 E4.34426
G1 X87.736 Y138.202 E4.36915
G1 X87.632 Y137.845 E4.39399
G1 X87.601 Y137.474 E4.41886
G1 X87.643 Y137.104 E4.44374
G1 X87.756 Y136.749 E4.46863
G1 X87.907 Y136.467 E4.49
G1 X88.176 Y136.139 E4.51834
G1 X88.467 Y135.907 E4.5432
G1 X88.798 Y135.736 E4.56809
G1 X89.155 Y135.632 E4.59293
G1 X89.52 Y135.601 E4.6174
G1 X89.896 Y135.643 E4.64268
G1 X90.251 Y135.756 E4.66757
G1 X90.577 Y135.936 E4.69245
G1 X90.861 Y136.176 E4.71729
G1 X91.093 Y136.467 E4.74215
G1 X91.264 Y136.798 E4.76704
G1 X91.368 Y137.155 E4.79188
G1 X91.399 Y137.526 E4.81675
G1 X91.357 Y137.896 E4.84163
G1 X91.244 Y138.251 E4.86652
G1 X91.064 Y138.577 E4.8914
G1 X90.824 Y138.861 E4.91624
G1 X90.533 Y139.093 E4.9411
G1 X90.202 Y139.264 E4.96599
G1 X89.845 Y139.368 E4.99083
G1 X89.474 Y139.399 E5.0157
G1 X89.104 Y139.357 E5.04058
G1 X89.008 Y139.327 E5.0473
G1 X88.638 Y139.175 F7800
G1 E3.0473 F2400
G92 E0
G1 X90.894 Y94.893 F7800
G1 E2 F2400
;TYPE:Perimeter
G1 F1800
G1 X91.038 Y94.962 E2.01067
G1 X91.504 Y95.311 E2.04956
G1 X91.892 Y95.744 E2.0884
G1 X92.189 Y96.244 E2.12725
G1 X92.289 Y96.487 E2.1448
G1 X92.434 Y97.05 E2.18364
G1 X92.465 Y97.631 E2.22251
G1 X92.403 Y98.129 E2.25604
G1 X92.224 Y98.685 E2.29506
G1 X91.979 Y99.139 E2.32952
G1 X91.666 Y99.531 E2.36303
G1 X91.257 Y99.892 E2.39947
G1 X90.756 Y100.189 E2.43838
G1 X90.207 Y100.382 E2.47726
G1 X89.631 Y100.465 E2.51614
G1 X89.05 Y100.434 E2.55501
G1 X88.487 Y100.289 E2.59385
G1 X87.962 Y100.038 E2.63273
