; generated by PrusaSlicer 2.9.4 on 2026-05-08 at 04:29:45 UTC

; 

; external perimeters extrusion width = 0.45mm
; perimeters extrusion width = 0.45mm
; infill extrusion width = 0.45mm
; solid infill extrusion width = 0.45mm
; top infill extrusion width = 0.40mm
; first layer extrusion width = 0.60mm

M190 S60 ; set bed temperature and wait for it to be reached
M104 S215 ; set temperature
;TYPE:Custom
G92 E0 ; Reset Extruder
G28 ; Home all axes
G1 Z2.0 F3000 ; Move Z Axis up little to prevent scratching of Heat Bed
G1 X0.1 Y20 Z0.3 F5000.0 ; Move to start position
G1 X0.1 Y200.0 Z0.3 F1500.0 E15 ; Draw the first line
G1 X0.4 Y200.0 Z0.3 F5000.0 ; Move to side a little
G1 X0.4 Y20 Z0.3 F1500.0 E30 ; Draw the second line
G92 E0 ; Reset Extruder
G1 Z2.0 F3000 ; Move Z Axis up little to prevent scratching of Heat Bed
G1 X5 Y20 Z0.3 F5000.0 ; Move over to prevent blob squish
M109 S215 ; set temperature and wait for it to be reached
G21 ; set units to millimeters
G90 ; use absolute coordinates
M82 ; use absolute distances for extrusion
G92 E0
; Filament gcode
M107
;LAYER_CHANGE
;Z:0.3
;HEIGHT:0.3
G1 E-2 F2400
G92 E0
G1 Z.3 F7800
G1 X104.207 Y97.994
G1 E2 F2400
;TYPE:Skirt/Brim
;WIDTH:0.6
G1 F1800
G1 X105.983 Y96.358 E2.16131
G1 X108.194 Y95.387 E2.32263
G1 X110 Y95.161 E2.44422
G1 X120 Y95.161 E3.11227
G1 X122.382 Y95.558 E3.2736
G1 X124.506 Y96.707 E3.43493
G1 X126.142 Y98.483 E3.59624
G1 X127.12 Y100.72 E3.75934
G1 X132.12 Y120.72 E5.13657
G1 X132.339 Y122.5 E5.25638
G1 X132.339 Y132.5 E5.92443
G1 X131.942 Y134.882 E6.08576
G1 X130.793 Y137.006 E6.24709
G1 X129.017 Y138.642 E6.4084
G1 X126.806 Y139.613 E6.56972
G1 X125 Y139.839 E6.69131
G1 X110 Y139.839 E7.69339
G1 X107.618 Y139.442 E7.85472
G1 X105.494 Y138.293 E8.01605
G1 X103.858 Y136.517 E8.17736
G1 X102.887 Y134.306 E8.33868
G1 X102.661 Y132.5 E8.46027
G1 X102.661 Y102.5 E10.46443
G1 X103.058 Y100.118 E10.62576
G1 X104.178 Y98.047 E10.78305
G1 X104.663 Y98.321 F7800
G1 F1800
G1 X104.738 Y98.187 E10.79331
G1 X106.497 Y96.667 E10.94862
G1 X108.665 Y95.829 E11.1039
G1 X110 Y95.697 E11.19352
G1 X120 Y95.697 E11.86157
G1 X122.29 Y96.094 E12.01684
G1 X124.313 Y97.238 E12.1721
G1 X125.833 Y98.997 E12.32741
G1 X126.6 Y100.85 E12.46139
G1 X131.6 Y120.85 E13.83862
G1 X131.803 Y122.5 E13.94968
G1 X131.803 Y132.5 E14.61773
G1 X131.406 Y134.79 E14.773
G1 X130.262 Y136.813 E14.92826
G1 X128.503 Y138.333 E15.08357
G1 X126.335 Y139.171 E15.23885
G1 X125 Y139.303 E15.32847
G1 X110 Y139.303 E16.33055
G1 X107.71 Y138.906 E16.48582
G1 X105.687 Y137.762 E16.64108
G1 X104.167 Y136.003 E16.79639
G1 X103.329 Y133.835 E16.95167
G1 X103.197 Y132.5 E17.04129
G1 X103.197 Y102.5 E19.04545
G1 X103.594 Y100.21 E19.20072
G1 X104.633 Y98.373 E19.34171
G1 X105.11 Y98.657 F7800
G1 F1800
G1 X105.269 Y98.388 E19.36259
G1 X107.008 Y96.992 E19.51157
G1 X110 Y96.232 E19.7178
G1 X120 Y96.232 E20.38585
G1 X122.195 Y96.629 E20.53487
G1 X124.112 Y97.769 E20.68387
G1 X125.508 Y99.508 E20.83285
G1 X126.081 Y100.98 E20.93838
G1 X131.081 Y120.98 E22.31561
G1 X131.268 Y122.5 E22.41792
G1 X131.268 Y132.5 E23.08597
G1 X130.871 Y134.695 E23.23499
G1 X129.731 Y136.612 E23.38399
G1 X127.992 Y138.008 E23.53297
G1 X125 Y138.768 E23.7392
G1 X110 Y138.768 E24.74128
G1 X107.805 Y138.371 E24.8903
G1 X105.888 Y137.231 E25.0393
G1 X104.492 Y135.492 E25.18828
G1 X103.732 Y132.5 E25.39451
G1 X103.732 Y102.5 E27.39867
G1 X104.129 Y100.305 E27.54769
G1 X105.079 Y98.708 E27.67183
G1 E25.67183 F2400
G92 E0
G92 E0
G1 X119.031 Y123.469 F7800
G1 E2 F2400
;TYPE:Perimeter
;WIDTH:0.6
G1 F1800
G1 X119.168 Y123.606 E2.01294
G1 X119.536 Y123.8 E2.04073
G1 X119.968 Y123.871 E2.06998
G1 X123.629 Y123.871 E2.31455
G1 X123.629 Y131.129 E2.79942
G1 X111.371 Y131.129 E3.61832
G1 X111.371 Y103.871 E5.4393
G1 X118.629 Y103.871 E5.92417
G1 X118.629 Y122.532 E7.17082
G1 X118.7 Y122.964 E7.20007
G1 X118.894 Y123.332 E7.22786
G1 X118.989 Y123.427 E7.23684
G1 X119.397 Y123.096 F7800
G1 F1800
G1 X119.4 Y123.1 E7.23717
G1 X119.709 Y123.293 E7.26151
G1 X119.968 Y123.336 E7.27905
G1 X124.164 Y123.336 E7.55937
G1 X124.164 Y131.664 E8.11572
G1 X110.836 Y131.664 E9.0061
G1 X110.836 Y103.336 E10.89856
G1 X119.164 Y103.336 E11.45491
G1 X119.164 Y122.532 E12.73731
G1 X119.207 Y122.791 E12.75485
G1 X119.365 Y123.045 E12.77483
G1 X119.786 Y122.711 F7800
;TYPE:External perimeter
G1 F1800
G1 X119.808 Y122.747 E12.77765
G1 X119.968 Y122.8 E12.78891
G1 X124.7 Y122.8 E13.10503
G1 X124.7 Y132.2 E13.733
G1 X110.3 Y132.2 E14.695
G1 X110.3 Y102.8 E16.65908
G1 X119.7 Y102.8 E17.28705
G1 X119.7 Y122.57 E18.60779
G1 X119.755 Y122.66 E18.61484
G1 X120.133 Y122.791 F7800
G1 E16.61484 F2400
G92 E0
G1 X117.363 Y104.032 F7800
G1 E2 F2400
;TYPE:Solid infill
;WIDTH:0.610451
G1 F1800
G1 X118.227 Y104.896 E2.08322
G1 X118.227 Y105.668 E2.1358
G1 X116.832 Y104.273 E2.27017
G1 X116.06 Y104.273 E2.32275
G1 X118.227 Y106.44 E2.53148
G1 X118.227 Y107.213 E2.58413
G1 X115.287 Y104.273 E2.86731
G1 X114.515 Y104.273 E2.91989
G1 X118.227 Y107.985 E3.27743
G1 X118.227 Y108.757 E3.33001
G1 X113.743 Y104.273 E3.76191
G1 X112.971 Y104.273 E3.81449
G1 X118.227 Y109.529 E4.32075
G1 X118.227 Y110.302 E4.3734
G1 X112.198 Y104.273 E4.95412
G1 X111.773 Y104.273 E4.98307
G1 X111.773 Y104.62 E5.0067
G1 X118.227 Y111.074 E5.62835
G1 X118.227 Y111.846 E5.68093
G1 X111.773 Y105.392 E6.30258
G1 X111.773 Y106.164 E6.35516
G1 X118.227 Y112.618 E6.97681
G1 X118.227 Y113.391 E7.02946
G1 X111.773 Y106.937 E7.65111
G1 X111.773 Y107.709 E7.70369
G1 X118.227 Y114.163 E8.32534
G1 X118.227 Y114.935 E8.37792
G1 X111.773 Y108.481 E8.99957
G1 X111.773 Y109.253 E9.05215
G1 X118.227 Y115.707 E9.6738
G1 X118.227 Y116.48 E9.72645
G1 X111.773 Y110.026 E10.3481
G1 X111.773 Y110.798 E10.40068
G1 X118.227 Y117.252 E11.02233
G1 X118.227 Y118.024 E11.07491
G1 X111.773 Y111.57 E11.69656
G1 X111.773 Y112.342 E11.74914
G1 X118.227 Y118.796 E12.37079
G1 X118.227 Y119.569 E12.42344
G1 X111.773 Y113.115 E13.04509
G1 X111.773 Y113.887 E13.09767
G1 X118.227 Y120.341 E13.71932
G1 X118.227 Y121.113 E13.7719
G1 X111.773 Y114.659 E14.39355
G1 X111.773 Y115.431 E14.44613
G1 X118.468 Y122.127 E15.09104
G1 E13.09104 F2400
G92 E0
G1 X122.69 Y124.032 F7800
G1 E2 F2400
G1 F1800
G1 X123.227 Y124.569 E2.05172
G1 X123.227 Y125.341 E2.1043
G1 X122.159 Y124.273 E2.20717
G1 X121.387 Y124.273 E2.25975
G1 X123.227 Y126.113 E2.43698
G1 X123.227 Y126.886 E2.48963
G1 X120.373 Y124.032 E2.76453
G1 E.76453 F2400
G92 E0
G1 X123.468 Y127.899 F7800
G1 E2 F2400
G1 F1800
G1 X119.831 Y124.262 E2.35032
G1 X119.681 Y124.25 E2.36057
G1 X119.406 Y124.18 E2.3799
G1 X119.153 Y124.071 E2.39866
G1 X118.928 Y123.929 E2.41678
G1 X118.737 Y123.763 E2.43402
G1 X118.571 Y123.572 E2.45126
G1 X118.429 Y123.347 E2.46938
G1 X118.32 Y123.094 E2.48814
G1 X118.25 Y122.819 E2.50747
G1 X118.238 Y122.669 E2.51772
G1 X111.773 Y116.204 E3.14043
G1 X111.773 Y116.976 E3.19301
G1 X123.227 Y128.43 E4.29626
G1 X123.227 Y129.202 E4.34884
G1 X111.773 Y117.748 E5.45209
G1 X111.773 Y118.52 E5.50467
G1 X123.227 Y129.975 E6.60797
G1 X123.227 Y130.727 E6.65919
G1 X123.207 Y130.727 E6.66055
G1 X111.773 Y119.293 E7.76188
G1 X111.773 Y120.065 E7.81446
G1 X122.435 Y130.727 E8.84143
G1 X121.663 Y130.727 E8.89401
G1 X111.773 Y120.837 E9.84662
G1 X111.773 Y121.609 E9.8992
G1 X120.891 Y130.727 E10.77745
G1 X120.118 Y130.727 E10.8301
G1 X111.773 Y122.382 E11.63389
G1 X111.773 Y123.154 E11.68647
G1 X119.346 Y130.727 E12.4159
G1 X118.574 Y130.727 E12.46848
G1 X111.773 Y123.926 E13.12356
G1 X111.773 Y124.699 E13.17621
G1 X117.801 Y130.727 E13.75683
G1 X117.029 Y130.727 E13.80941
G1 X111.773 Y125.471 E14.31567
G1 X111.773 Y126.243 E14.36825
G1 X116.257 Y130.727 E14.80015
G1 X115.485 Y130.727 E14.85273
G1 X111.773 Y127.015 E15.21027
G1 X111.773 Y127.788 E15.26292
G1 X114.712 Y130.727 E15.54601
G1 X113.94 Y130.727 E15.59859
G1 X111.773 Y128.56 E15.80732
G1 X111.773 Y129.332 E15.8599
G1 X113.168 Y130.727 E15.99427
G1 X112.396 Y130.727 E16.04685
G1 X111.532 Y129.863 E16.13007
;LAYER_CHANGE
;Z:0.5
;HEIGHT:0.2
G1 E14.13007 F2400
G92 E0
G1 Z.5 F7800
G1 X119.267 Y123.233
G1 E2 F2400
;TYPE:Perimeter
;WIDTH:0.449999
G1 F3600
G1 X119.371 Y123.338 E2.005
G1 X119.65 Y123.485 E2.01567
G1 X119.979 Y123.539 E2.02696
G1 X123.961 Y123.539 E2.16175
G1 X123.961 Y131.461 E2.4299
G1 X111.039 Y131.461 E2.86729
G1 X111.039 Y103.539 E3.81242
G1 X118.961 Y103.539 E4.08057
G1 X118.961 Y122.521 E4.72309
G1 X119.015 Y122.85 E4.73438
G1 X119.162 Y123.129 E4.74505
G1 X119.224 Y123.191 E4.74802
G1 X119.557 Y122.944 F7800
G1 F3600
G1 X119.693 Y123.061 E4.75409
G1 X119.979 Y123.132 E4.76406
G1 X124.368 Y123.132 E4.91262
G1 X124.368 Y131.868 E5.20832
G1 X110.632 Y131.868 E5.67327
G1 X110.632 Y103.132 E6.64595
G1 X119.368 Y103.132 E6.94165
G1 X119.368 Y122.602 E7.60069
G1 X119.489 Y122.886 E7.61114
G1 X119.511 Y122.905 E7.61212
G1 X119.832 Y122.659 F7800
;TYPE:External perimeter
G1 F1800
G1 X119.835 Y122.665 E7.61235
G1 X119.979 Y122.725 E7.61763
G1 X124.775 Y122.725 E7.77997
G1 X124.775 Y132.275 E8.10323
G1 X110.225 Y132.275 E8.59573
G1 X110.225 Y102.725 E9.59596
G1 X119.775 Y102.725 E9.91922
G1 X119.775 Y122.521 E10.58929
G1 X119.809 Y122.604 E10.59233
G1 X120.192 Y122.718 F7800
G1 E8.59233 F2400
G92 E0
G1 X111.455 Y103.877 F7800
G1 E2 F2400
;TYPE:Solid infill
;WIDTH:0.548766
G1 F1200
G1 X111.41 Y103.833 E2.00265
G1 X111.349 Y103.849 E2.0053
G1 X111.333 Y103.91 E2.00795
G1 X111.377 Y103.955 E2.0106
G1 X111.439 Y103.939 E2.01329
G1 X111.212 Y104.734 F7800
;WIDTH:0.38292
G1 F1200
G1 X111.141 Y104.715 E2.01537
G1 X111.16 Y104.786 E2.01745
G1 X111.201 Y104.775 E2.01865
;WIDTH:0.41646
G1 X111.273 Y104.682 E2.0223
;WIDTH:0.449999
G1 X111.344 Y104.589 E2.02626
G1 X112.089 Y103.844 E2.06192
G1 X112.182 Y103.773 E2.06588
;WIDTH:0.41646
G1 X112.275 Y103.701 E2.06953
;WIDTH:0.38292
G1 X112.234 Y103.712 E2.07073
G1 X112.215 Y103.641 E2.07281
G1 X112.286 Y103.66 E2.07489
;WIDTH:0.449999
G1 X112.664 Y103.844 E2.08912
G1 X111.344 Y105.164 E2.15231
G1 X111.344 Y105.74 E2.17181
G1 X113.24 Y103.844 E2.26257
G1 X113.816 Y103.844 E2.28207
G1 X111.344 Y106.316 E2.4004
G1 X111.344 Y106.892 E2.4199
G1 X114.392 Y103.844 E2.56581
G1 X114.967 Y103.844 E2.58527
G1 X111.344 Y107.467 E2.7587
G1 X111.344 Y108.043 E2.7782
G1 X115.543 Y103.844 E2.9792
G1 X116.119 Y103.844 E2.9987
G1 X111.344 Y108.619 E3.22728
G1 X111.344 Y109.194 E3.24674
G1 X116.694 Y103.844 E3.50284
G1 X117.27 Y103.844 E3.52234
G1 X111.344 Y109.77 E3.80601
G1 X111.344 Y110.346 E3.82551
G1 X117.846 Y103.844 E4.13676
G1 X118.785 Y103.745 F7800
;WIDTH:0.38292
G1 F1200
G1 X118.714 Y103.726 E4.13884
G1 X118.733 Y103.797 E4.14092
G1 X118.774 Y103.786 E4.14212
;WIDTH:0.41646
G1 X118.598 Y103.815 E4.14766
;WIDTH:0.449999
G1 X118.421 Y103.844 E4.15373
G1 X111.344 Y110.921 E4.4925
G1 X111.344 Y111.497 E4.512
G1 X118.656 Y104.186 E4.862
G1 X118.656 Y104.762 E4.8815
G1 X111.344 Y112.073 E5.2315
G1 X111.344 Y112.649 E5.251
G1 X118.656 Y105.337 E5.60102
G1 X118.656 Y105.913 E5.62052
G1 X111.344 Y113.224 E5.97052
G1 X111.344 Y113.8 E5.99002
G1 X118.656 Y106.489 E6.34002
G1 X118.656 Y107.065 E6.35952
G1 X111.344 Y114.376 E6.70952
G1 X111.344 Y114.951 E6.72898
G1 X118.656 Y107.64 E7.07898
G1 X118.656 Y108.216 E7.09848
G1 X111.344 Y115.527 E7.44848
G1 X111.344 Y116.103 E7.46798
G1 X118.656 Y108.792 E7.81798
G1 X118.656 Y109.367 E7.83744
G1 X111.344 Y116.678 E8.18744
G1 X111.344 Y117.254 E8.20694
G1 X118.656 Y109.943 E8.55694
G1 X118.656 Y110.519 E8.57644
G1 X111.344 Y117.83 E8.92644
G1 X111.344 Y118.406 E8.94594
G1 X118.656 Y111.094 E9.29596
G1 X118.656 Y111.67 E9.31546
G1 X111.344 Y118.981 E9.66546
G1 X111.344 Y119.557 E9.68496
G1 X118.656 Y112.246 E10.03496
G1 X118.656 Y112.822 E10.05446
G1 X111.344 Y120.133 E10.40446
G1 X111.344 Y120.708 E10.42392
G1 X118.656 Y113.397 E10.77392
G1 X118.656 Y113.973 E10.79342
G1 X111.344 Y121.284 E11.14342
G1 X111.344 Y121.86 E11.16292
G1 X118.656 Y114.549 E11.51292
G1 X118.656 Y115.124 E11.53238
G1 X111.344 Y122.435 E11.88238
G1 X111.344 Y123.011 E11.90188
G1 X118.656 Y115.7 E12.25188
G1 X118.656 Y116.276 E12.27138
G1 X111.344 Y123.587 E12.62138
G1 X111.344 Y124.162 E12.64084
G1 X118.656 Y116.851 E12.99084
G1 X118.656 Y117.427 E13.01034
G1 X111.344 Y124.738 E13.36034
G1 X111.344 Y125.314 E13.37984
G1 X118.656 Y118.003 E13.72984
G1 X118.656 Y118.578 E13.7493
G1 X111.344 Y125.89 E14.09932
G1 X111.344 Y126.465 E14.11878
G1 X118.656 Y119.154 E14.46878
G1 X118.656 Y119.73 E14.48828
G1 X111.344 Y127.041 E14.83828
G1 X111.344 Y127.617 E14.85778
G1 X118.656 Y120.306 E15.20778
G1 X118.656 Y120.881 E15.22724
G1 X111.344 Y128.192 E15.57724
G1 X111.344 Y128.768 E15.59674
G1 X118.656 Y121.457 E15.94674
G1 X118.656 Y122.033 E15.96624
G1 X111.344 Y129.344 E16.31624
G1 X111.344 Y129.919 E16.3357
G1 X118.662 Y122.602 E16.68598
G1 X118.776 Y123.064 E16.70209
G1 X111.344 Y130.495 E17.05783
G1 X111.446 Y131.308 F7800
;WIDTH:0.38292
G1 F1200
G1 X111.212 Y131.288 E17.06447
;WIDTH:0.41646
G1 X111.278 Y131.18 E17.0684
;WIDTH:0.449999
G1 X111.344 Y131.071 E17.07271
G1 X119.004 Y123.412 E17.43937
G1 X119.323 Y123.668 E17.45321
G1 X111.835 Y131.156 E17.81166
G1 X112.411 Y131.156 E17.83116
G1 X119.743 Y123.823 E18.18216
G1 X120.298 Y123.844 E18.20096
G1 X112.987 Y131.156 E18.55096
G1 X113.563 Y131.156 E18.57046
G1 X120.874 Y123.844 E18.92046
G1 X121.449 Y123.844 E18.93992
G1 X114.138 Y131.156 E19.28992
G1 X114.714 Y131.156 E19.30942
G1 X122.025 Y123.844 E19.65942
G1 X122.601 Y123.844 E19.67892
G1 X115.29 Y131.156 E20.02892
G1 X115.865 Y131.156 E20.04838
G1 X123.176 Y123.844 E20.39838
G1 X123.824 Y123.706 E20.42081
;WIDTH:0.38292
G1 X123.753 Y123.687 E20.42289
G1 X123.772 Y123.758 E20.42497
G1 X123.813 Y123.747 E20.42617
;WIDTH:0.41646
G1 X123.734 Y123.844 E20.43006
;WIDTH:0.449999
G1 X123.656 Y123.941 E20.43427
G1 X116.441 Y131.156 E20.77965
G1 X117.017 Y131.156 E20.79915
G1 X123.656 Y124.517 E21.11695
G1 X123.656 Y125.092 E21.13641
G1 X117.592 Y131.156 E21.42669
G1 X118.168 Y131.156 E21.44619
G1 X123.656 Y125.668 E21.7089
G1 X123.656 Y126.244 E21.7284
G1 X118.744 Y131.156 E21.96353
G1 X119.32 Y131.156 E21.98303
G1 X123.656 Y126.82 E22.19059
G1 X123.656 Y127.395 E22.21005
G1 X119.895 Y131.156 E22.39009
G1 X120.471 Y131.156 E22.40959
G1 X123.656 Y127.971 E22.56205
G1 X123.656 Y128.547 E22.58155
G1 X121.047 Y131.156 E22.70644
G1 X121.622 Y131.156 E22.7259
G1 X123.656 Y129.122 E22.82327
G1 X123.656 Y131.156 E22.89212
G1 X122.198 Y131.156 E22.94147
G1 X123.512 Y129.842 E23.00437
G1 X123.283 Y130.714 F7800
;WIDTH:0.48964
G1 F1200
G1 X123.243 Y130.675 E23.00645
G1 X123.189 Y130.689 E23.00852
G1 X123.175 Y130.743 E23.01059
G1 X123.214 Y130.783 E23.01267
G1 X123.268 Y130.768 E23.01475
;LAYER_CHANGE
;Z:0.7
;HEIGHT:0.2
G1 E21.01475 F2400
G92 E0
G1 Z.7 F7800
G1 X119.267 Y123.233
G1 E2 F2400
;TYPE:Perimeter
;WIDTH:0.449999
G1 F3600
G1 X119.371 Y123.338 E2.005
G1 X119.65 Y123.485 E2.01567
G1 X119.979 Y123.539 E2.02696
G1 X123.961 Y123.539 E2.16175
G1 X123.961 Y131.461 E2.4299
G1 X111.039 Y131.461 E2.86729
G1 X111.039 Y103.539 E3.81242
G1 X118.961 Y103.539 E4.08057
G1 X118.961 Y122.521 E4.72309
G1 X119.015 Y122.85 E4.73438
G1 X119.162 Y123.129 E4.74505
G1 X119.224 Y123.191 E4.74802
G1 X119.557 Y122.944 F7800
G1 F3600
G1 X119.693 Y123.061 E4.75409
G1 X119.979 Y123.132 E4.76406
G1 X124.368 Y123.132 E4.91262
G1 X124.368 Y131.868 E5.20832
G1 X110.632 Y131.868 E5.67327
G1 X110.632 Y103.132 E6.64595
G1 X119.368 Y103.132 E6.94165
G1 X119.368 Y122.602 E7.60069
G1 X119.489 Y122.886 E7.61114
G1 X119.511 Y122.905 E7.61212
G1 X119.832 Y122.659 F7800
;TYPE:External perimeter
G1 F1800
G1 X119.835 Y122.665 E7.61235
G1 X119.979 Y122.725 E7.61763
G1 X124.775 Y122.725 E7.77997
G1 X124.775 Y132.275 E8.10323
G1 X110.225 Y132.275 E8.59573
G1 X110.225 Y102.725 E9.59596
G1 X119.775 Y102.725 E9.91922
G1 X119.775 Y122.521 E10.58929
G1 X119.809 Y122.604 E10.59233
G1 X120.192 Y122.718 F7800
G1 E8.59233 F2400
G92 E0
G1 X111.377 Y131.045 F7800
G1 E2 F2400
;TYPE:Solid infill
;WIDTH:0.548766
G1 F1200
G1 X111.333 Y131.09 E2.00265
G1 X111.349 Y131.151 E2.0053
G1 X111.41 Y131.167 E2.00795
G1 X111.455 Y131.123 E2.0106
