; generated by PrusaSlicer 2.9.4 on 2026-05-08 at 05:58:27 UTC

; 

; external perimeters extrusion width = 0.45mm
; perimeters extrusion width = 0.45mm
; infill extrusion width = 0.45mm
; solid infill extrusion width = 0.45mm
; top infill extrusion width = 0.40mm
; first layer extrusion width = 0.60mm

M190 S60 ; set bed temperature and wait for it to be reached
M104 S215 ; set temperature
;TYPE:Custom
G92 E0 ; Reset Extruder
G28 ; Home all axes
G1 Z2.0 F3000 ; Move Z Axis up little to prevent scratching of Heat Bed
G1 X0.1 Y20 Z0.3 F5000.0 ; Move to start position
G1 X0.1 Y200.0 Z0.3 F1500.0 E15 ; Draw the first line
G1 X0.4 Y200.0 Z0.3 F5000.0 ; Move to side a little
G1 X0.4 Y20 Z0.3 F1500.0 E30 ; Draw the second line
G92 E0 ; Reset Extruder
G1 Z2.0 F3000 ; Move Z Axis up little to prevent scratching of Heat Bed
G1 X5 Y20 Z0.3 F5000.0 ; Move over to prevent blob squish
M109 S215 ; set temperature and wait for it to be reached
G21 ; set units to millimeters
G90 ; use absolute coordinates
M82 ; use absolute distances for extrusion
G92 E0
; Filament gcode
M107
;LAYER_CHANGE
;Z:0.3
;HEIGHT:0.3
G1 E-2 F2400
G92 E0
G1 Z.3 F7800
G1 X94.207 Y97.994
G1 E2 F2400
;TYPE:Skirt/Brim
;WIDTH:0.6
G1 F1800
G1 X95.983 Y96.358 E2.16131
G1 X98.194 Y95.387 E2.32263
G1 X100 Y95.161 E2.44422
G1 X110 Y95.161 E3.11227
G1 X112.382 Y95.558 E3.2736
G1 X114.585 Y96.769 E3.44154
G1 X139.585 Y116.769 E5.58036
G1 X141.196 Y118.567 E5.74164
G1 X142.137 Y120.791 E5.90297
G1 X142.339 Y122.5 E6.01794
G1 X142.339 Y132.5 E6.68599
G1 X141.942 Y134.882 E6.84732
G1 X140.793 Y137.006 E7.00865
G1 X139.017 Y138.642 E7.16996
G1 X136.806 Y139.613 E7.33128
G1 X135 Y139.839 E7.45287
G1 X100 Y139.839 E9.79106
G1 X97.618 Y139.442 E9.95239
G1 X95.494 Y138.293 E10.11372
G1 X93.858 Y136.517 E10.27503
G1 X92.887 Y134.306 E10.43635
G1 X92.661 Y132.5 E10.55794
G1 X92.661 Y102.5 E12.5621
G1 X93.058 Y100.118 E12.72343
G1 X94.178 Y98.047 E12.88072
G1 X94.663 Y98.321 F7800
G1 F1800
G1 X94.738 Y98.187 E12.89098
G1 X96.497 Y96.667 E13.04629
G1 X98.665 Y95.829 E13.20157
G1 X100 Y95.697 E13.29119
G1 X110 Y95.697 E13.95924
G1 X112.29 Y96.094 E14.11451
G1 X114.25 Y97.187 E14.26443
G1 X139.25 Y117.187 E16.40325
G1 X140.79 Y118.928 E16.55853
G1 X141.655 Y121.086 E16.71385
G1 X141.803 Y122.5 E16.80883
G1 X141.803 Y132.5 E17.47688
G1 X141.406 Y134.79 E17.63215
G1 X140.262 Y136.813 E17.78741
G1 X138.503 Y138.333 E17.94272
G1 X136.335 Y139.171 E18.098
G1 X135 Y139.303 E18.18762
G1 X100 Y139.303 E20.52581
G1 X97.71 Y138.906 E20.68108
G1 X95.687 Y137.762 E20.83634
G1 X94.167 Y136.003 E20.99165
G1 X93.329 Y133.835 E21.14693
G1 X93.197 Y132.5 E21.23655
G1 X93.197 Y102.5 E23.24071
G1 X93.594 Y100.21 E23.39598
G1 X94.633 Y98.373 E23.53697
G1 X95.11 Y98.657 F7800
G1 F1800
G1 X95.269 Y98.388 E23.55785
G1 X97.008 Y96.992 E23.70683
G1 X100 Y96.232 E23.91306
G1 X110 Y96.232 E24.58111
G1 X112.195 Y96.629 E24.73013
G1 X113.915 Y97.606 E24.86228
G1 X138.915 Y117.606 E27.0011
G1 X140.381 Y119.287 E27.15011
G1 X141.166 Y121.374 E27.29907
G1 X141.268 Y122.5 E27.3746
G1 X141.268 Y132.5 E28.04265
G1 X140.871 Y134.695 E28.19167
G1 X139.731 Y136.612 E28.34067
G1 X137.992 Y138.008 E28.48965
G1 X135 Y138.768 E28.69588
G1 X100 Y138.768 E31.03407
G1 X97.805 Y138.371 E31.18309
G1 X95.888 Y137.231 E31.33209
G1 X94.492 Y135.492 E31.48107
G1 X93.732 Y132.5 E31.6873
G1 X93.732 Y102.5 E33.69146
G1 X94.129 Y100.305 E33.84048
G1 X95.079 Y98.708 E33.96462
G1 E31.96462 F2400
G92 E0
G92 E0
G1 X109.031 Y123.469 F7800
G1 E2 F2400
;TYPE:Perimeter
;WIDTH:0.6
G1 F1800
G1 X109.168 Y123.606 E2.01294
G1 X109.536 Y123.8 E2.04073
G1 X109.968 Y123.871 E2.06998
G1 X133.629 Y123.871 E3.65066
G1 X133.629 Y131.129 E4.13553
G1 X101.371 Y131.129 E6.29054
G1 X101.371 Y103.871 E8.11152
G1 X108.629 Y103.871 E8.59639
G1 X108.629 Y122.532 E9.84304
G1 X108.7 Y122.964 E9.87229
G1 X108.894 Y123.332 E9.90008
G1 X108.989 Y123.427 E9.90906
G1 X109.397 Y123.096 F7800
G1 F1800
G1 X109.4 Y123.1 E9.90939
G1 X109.709 Y123.293 E9.93373
G1 X109.968 Y123.336 E9.95127
G1 X134.164 Y123.336 E11.56769
G1 X134.164 Y131.664 E12.12404
G1 X100.836 Y131.664 E14.35053
G1 X100.836 Y103.336 E16.24299
G1 X109.164 Y103.336 E16.79934
G1 X109.164 Y122.532 E18.08174
G1 X109.207 Y122.791 E18.09928
G1 X109.365 Y123.045 E18.11926
G1 X109.786 Y122.711 F7800
;TYPE:External perimeter
G1 F1800
G1 X109.808 Y122.747 E18.12208
G1 X109.968 Y122.8 E18.13334
G1 X134.7 Y122.8 E19.78557
G1 X134.7 Y132.2 E20.41354
G1 X100.3 Y132.2 E22.71164
G1 X100.3 Y102.8 E24.67572
G1 X109.7 Y102.8 E25.30369
G1 X109.7 Y122.57 E26.62443
G1 X109.755 Y122.66 E26.63148
G1 X110.133 Y122.791 F7800
G1 E24.63148 F2400
G92 E0
G1 X132.375 Y124.032 F7800
G1 E2 F2400
;TYPE:Solid infill
;WIDTH:0.604824
G1 F1800
G1 X133.227 Y124.884 E2.08122
G1 X133.227 Y125.648 E2.13272
G1 X131.852 Y124.273 E2.2638
G1 X131.088 Y124.273 E2.3153
G1 X133.227 Y126.412 E2.51921
G1 X133.227 Y127.177 E2.57078
G1 X130.323 Y124.273 E2.84761
G1 X129.559 Y124.273 E2.89911
G1 X133.227 Y127.941 E3.24877
G1 X133.227 Y128.705 E3.30027
G1 X128.795 Y124.273 E3.72276
G1 X128.03 Y124.273 E3.77433
G1 X133.227 Y129.47 E4.26975
G1 X133.227 Y130.234 E4.32125
G1 X127.266 Y124.273 E4.8895
G1 X126.502 Y124.273 E4.941
G1 X132.956 Y130.727 E5.55625
G1 X132.192 Y130.727 E5.60775
G1 X125.737 Y124.273 E6.22304
G1 X124.973 Y124.273 E6.27454
G1 X131.427 Y130.727 E6.88979
G1 X130.663 Y130.727 E6.94129
G1 X124.209 Y124.273 E7.55654
G1 X123.445 Y124.273 E7.60804
G1 X129.899 Y130.727 E8.22329
G1 X129.134 Y130.727 E8.27486
G1 X122.68 Y124.273 E8.89011
G1 X121.916 Y124.273 E8.94161
G1 X128.37 Y130.727 E9.55686
G1 X127.606 Y130.727 E9.60836
G1 X121.152 Y124.273 E10.22361
G1 X120.387 Y124.273 E10.27518
G1 X126.841 Y130.727 E10.89043
G1 X126.077 Y130.727 E10.94193
G1 X119.623 Y124.273 E11.55718
G1 X118.859 Y124.273 E11.60868
G1 X125.313 Y130.727 E12.22393
G1 X124.549 Y130.727 E12.27543
G1 X118.094 Y124.273 E12.89072
G1 X117.33 Y124.273 E12.94222
G1 X123.784 Y130.727 E13.55747
G1 X123.02 Y130.727 E13.60897
G1 X116.566 Y124.273 E14.22422
G1 X115.802 Y124.273 E14.27572
G1 X122.256 Y130.727 E14.89097
G1 X121.491 Y130.727 E14.94254
G1 X115.037 Y124.273 E15.55779
G1 X114.273 Y124.273 E15.60929
G1 X120.727 Y130.727 E16.22454
G1 X119.963 Y130.727 E16.27604
G1 X113.509 Y124.273 E16.89129
G1 X112.744 Y124.273 E16.94286
G1 X119.198 Y130.727 E17.55811
G1 X118.434 Y130.727 E17.60961
G1 X111.98 Y124.273 E18.22486
G1 X111.216 Y124.273 E18.27636
G1 X117.67 Y130.727 E18.89161
G1 X116.905 Y130.727 E18.94318
G1 X110.21 Y124.032 E19.5814
G1 E17.5814 F2400
G92 E0
G1 X108.468 Y104.711 F7800
G1 E2 F2400
G1 F1800
G1 X108.03 Y104.273 E2.04175
G1 X107.266 Y104.273 E2.09325
G1 X108.227 Y105.234 E2.18486
G1 X108.227 Y105.998 E2.23636
G1 X106.502 Y104.273 E2.4008
G1 X105.737 Y104.273 E2.45237
G1 X108.227 Y106.763 E2.68974
G1 X108.227 Y107.527 E2.74124
G1 X104.973 Y104.273 E3.05144
G1 X104.209 Y104.273 E3.10294
G1 X108.227 Y108.291 E3.48597
G1 X108.227 Y109.055 E3.53747
G1 X103.445 Y104.273 E3.99333
G1 X102.68 Y104.273 E4.0449
G1 X108.227 Y109.82 E4.57368
G1 X108.227 Y110.584 E4.62518
G1 X101.916 Y104.273 E5.22679
G1 X101.773 Y104.273 E5.23643
G1 X101.773 Y104.894 E5.27829
G1 X108.227 Y111.348 E5.89354
G1 X108.227 Y112.113 E5.94511
G1 X101.773 Y105.659 E6.56036
G1 X101.773 Y106.423 E6.61186
G1 X108.227 Y112.877 E7.22711
G1 X108.227 Y113.641 E7.27861
G1 X101.773 Y107.187 E7.89386
G1 X101.773 Y107.951 E7.94536
G1 X108.227 Y114.406 E8.56065
G1 X108.227 Y115.17 E8.61215
G1 X101.773 Y108.716 E9.2274
G1 X101.773 Y109.48 E9.2789
G1 X108.227 Y115.934 E9.89415
G1 X108.227 Y116.698 E9.94565
G1 X101.773 Y110.244 E10.5609
G1 X101.773 Y111.009 E10.61247
G1 X108.227 Y117.463 E11.22772
G1 X108.227 Y118.227 E11.27922
G1 X101.773 Y111.773 E11.89447
G1 X101.773 Y112.537 E11.94597
G1 X108.227 Y118.991 E12.56122
G1 X108.227 Y119.756 E12.61279
G1 X101.773 Y113.302 E13.22804
G1 X101.773 Y114.066 E13.27954
G1 X108.227 Y120.52 E13.89479
G1 X108.227 Y121.284 E13.94629
G1 X101.773 Y114.83 E14.56154
G1 X101.773 Y115.595 E14.61311
G1 X108.468 Y122.29 E15.25133
G1 E13.25133 F2400
G92 E0
G1 X101.532 Y116.118 F7800
G1 E2 F2400
G1 F1800
G1 X108.256 Y122.842 E2.64099
G1 X108.32 Y123.094 E2.65852
G1 X108.429 Y123.347 E2.67709
G1 X108.571 Y123.572 E2.69502
G1 X108.737 Y123.763 E2.71208
G1 X108.928 Y123.929 E2.72914
G1 X109.153 Y124.071 E2.74707
G1 X109.406 Y124.18 E2.76564
G1 X109.658 Y124.244 E2.78317
G1 X116.141 Y130.727 E3.40118
G1 X115.377 Y130.727 E3.45268
G1 X101.773 Y117.123 E4.74952
G1 X101.773 Y117.887 E4.80102
G1 X114.613 Y130.727 E6.02503
G1 X113.848 Y130.727 E6.0766
G1 X101.773 Y118.652 E7.22768
G1 X101.773 Y119.416 E7.27918
G1 X113.084 Y130.727 E8.35743
G1 X112.32 Y130.727 E8.40893
G1 X101.773 Y120.18 E9.41435
G1 X101.773 Y120.945 E9.46592
G1 X111.555 Y130.727 E10.39842
G1 X110.791 Y130.727 E10.44992
G1 X101.773 Y121.709 E11.30959
G1 X101.773 Y122.473 E11.36109
G1 X110.027 Y130.727 E12.14793
G1 X109.262 Y130.727 E12.1995
G1 X101.773 Y123.238 E12.91341
G1 X101.773 Y124.002 E12.96491
G1 X108.498 Y130.727 E13.60599
G1 X107.734 Y130.727 E13.65749
G1 X101.773 Y124.766 E14.22574
G1 X101.773 Y125.53 E14.27724
G1 X106.97 Y130.727 E14.77266
G1 X106.205 Y130.727 E14.82423
G1 X101.773 Y126.295 E15.24672
G1 X101.773 Y127.059 E15.29822
G1 X105.441 Y130.727 E15.64788
G1 X104.677 Y130.727 E15.69938
G1 X101.773 Y127.823 E15.97621
G1 X101.773 Y128.588 E16.02778
G1 X103.912 Y130.727 E16.23169
G1 X103.148 Y130.727 E16.28319
G1 X101.773 Y129.352 E16.41427
G1 X101.773 Y130.116 E16.46577
G1 X102.625 Y130.968 E16.54699
;LAYER_CHANGE
;Z:0.5
;HEIGHT:0.2
G1 E14.54699 F2400
G92 E0
G1 Z.5 F7800
G1 X109.267 Y123.233
G1 E2 F2400
;TYPE:Perimeter
;WIDTH:0.449999
G1 F3600
G1 X109.371 Y123.338 E2.005
G1 X109.65 Y123.485 E2.01567
G1 X109.979 Y123.539 E2.02696
G1 X133.961 Y123.539 E2.83872
G1 X133.961 Y131.461 E3.10687
G1 X101.039 Y131.461 E4.22124
G1 X101.039 Y103.539 E5.16637
G1 X108.961 Y103.539 E5.43452
G1 X108.961 Y122.521 E6.07704
G1 X109.015 Y122.85 E6.08833
G1 X109.162 Y123.129 E6.099
G1 X109.224 Y123.191 E6.10197
G1 X109.557 Y122.944 F7800
G1 F3600
G1 X109.693 Y123.061 E6.10804
G1 X109.979 Y123.132 E6.11801
G1 X134.368 Y123.132 E6.94355
G1 X134.368 Y131.868 E7.23925
G1 X100.632 Y131.868 E8.38117
G1 X100.632 Y103.132 E9.35385
G1 X109.368 Y103.132 E9.64955
G1 X109.368 Y122.602 E10.30859
G1 X109.489 Y122.886 E10.31904
G1 X109.511 Y122.905 E10.32002
G1 X109.832 Y122.659 F7800
;TYPE:External perimeter
G1 F1800
G1 X109.835 Y122.665 E10.32025
G1 X109.979 Y122.725 E10.32553
G1 X134.775 Y122.725 E11.16484
G1 X134.775 Y132.275 E11.4881
G1 X100.225 Y132.275 E12.65757
G1 X100.225 Y102.725 E13.6578
G1 X109.775 Y102.725 E13.98106
G1 X109.775 Y122.521 E14.65113
G1 X109.809 Y122.604 E14.65417
G1 X110.192 Y122.718 F7800
G1 E12.65417 F2400
G92 E0
G1 X101.455 Y103.877 F7800
G1 E2 F2400
;TYPE:Solid infill
;WIDTH:0.548766
G1 F1200
G1 X101.41 Y103.833 E2.00265
G1 X101.349 Y103.849 E2.0053
G1 X101.333 Y103.91 E2.00795
G1 X101.377 Y103.955 E2.0106
G1 X101.439 Y103.939 E2.01329
;WIDTH:0.449999
G1 X102.089 Y103.844 E2.03553
G1 X101.278 Y104.661 E2.0745
;WIDTH:0.41646
G1 X101.212 Y104.734 E2.07756
;WIDTH:0.38292
G1 X101.141 Y104.715 E2.07964
G1 X101.16 Y104.786 E2.08172
G1 X101.201 Y104.775 E2.08292
;WIDTH:0.449999
G1 X101.344 Y105.164 E2.09695
G1 X102.664 Y103.844 E2.16014
G1 X103.24 Y103.844 E2.17964
G1 X101.344 Y105.74 E2.2704
G1 X101.344 Y106.316 E2.2899
G1 X103.816 Y103.844 E2.40823
G1 X104.392 Y103.844 E2.42773
G1 X101.344 Y106.892 E2.57364
G1 X101.344 Y107.467 E2.5931
G1 X104.967 Y103.844 E2.76653
G1 X105.543 Y103.844 E2.78603
G1 X101.344 Y108.043 E2.98703
G1 X101.344 Y108.619 E3.00653
G1 X106.119 Y103.844 E3.23511
G1 X106.694 Y103.844 E3.25457
G1 X101.344 Y109.194 E3.51067
G1 X101.344 Y109.77 E3.53017
G1 X107.27 Y103.844 E3.81384
G1 X107.846 Y103.844 E3.83334
G1 X101.344 Y110.346 E4.14459
G1 X101.344 Y110.921 E4.16405
G1 X108.421 Y103.844 E4.50282
G1 X108.656 Y104.186 E4.51687
G1 X101.344 Y111.497 E4.86687
G1 X101.344 Y112.073 E4.88637
G1 X108.656 Y104.762 E5.23637
G1 X108.656 Y105.337 E5.25583
G1 X101.344 Y112.649 E5.60585
G1 X101.344 Y113.224 E5.62531
G1 X108.656 Y105.913 E5.97531
G1 X108.656 Y106.489 E5.99481
G1 X101.344 Y113.8 E6.34481
G1 X101.344 Y114.376 E6.36431
G1 X108.656 Y107.065 E6.71431
G1 X108.656 Y107.64 E6.73377
G1 X101.344 Y114.951 E7.08377
G1 X101.344 Y115.527 E7.10327
G1 X108.656 Y108.216 E7.45327
G1 X108.656 Y108.792 E7.47277
G1 X101.344 Y116.103 E7.82277
G1 X101.344 Y116.678 E7.84223
G1 X108.656 Y109.367 E8.19223
G1 X108.656 Y109.943 E8.21173
G1 X101.344 Y117.254 E8.56173
G1 X101.344 Y117.83 E8.58123
G1 X108.656 Y110.519 E8.93123
G1 X108.656 Y111.094 E8.95069
G1 X101.344 Y118.406 E9.30071
G1 X101.344 Y118.981 E9.32017
G1 X108.656 Y111.67 E9.67017
G1 X108.656 Y112.246 E9.68967
G1 X101.344 Y119.557 E10.03967
G1 X101.344 Y120.133 E10.05917
G1 X108.656 Y112.822 E10.40917
G1 X108.656 Y113.397 E10.42863
G1 X101.344 Y120.708 E10.77863
G1 X101.344 Y121.284 E10.79813
G1 X108.656 Y113.973 E11.14813
G1 X108.656 Y114.549 E11.16763
G1 X101.344 Y121.86 E11.51763
G1 X101.344 Y122.435 E11.53709
G1 X108.656 Y115.124 E11.88709
G1 X108.656 Y115.7 E11.90659
G1 X101.344 Y123.011 E12.25659
G1 X101.344 Y123.587 E12.27609
G1 X108.656 Y116.276 E12.62609
G1 X108.656 Y116.851 E12.64555
G1 X101.344 Y124.162 E12.99555
G1 X101.344 Y124.738 E13.01505
G1 X108.656 Y117.427 E13.36505
G1 X108.656 Y118.003 E13.38455
G1 X101.344 Y125.314 E13.73455
G1 X101.344 Y125.89 E13.75405
G1 X108.656 Y118.578 E14.10407
G1 X108.656 Y119.154 E14.12357
G1 X101.344 Y126.465 E14.47357
G1 X101.344 Y127.041 E14.49307
G1 X108.656 Y119.73 E14.84307
G1 X108.656 Y120.306 E14.86257
G1 X101.344 Y127.617 E15.21257
G1 X101.344 Y128.192 E15.23203
G1 X108.656 Y120.881 E15.58203
G1 X108.656 Y121.457 E15.60153
G1 X101.344 Y128.768 E15.95153
G1 X101.344 Y129.344 E15.97103
G1 X108.656 Y122.033 E16.32103
G1 X108.662 Y122.602 E16.34029
G1 X101.344 Y129.919 E16.69057
G1 X101.344 Y130.495 E16.71007
G1 X108.776 Y123.064 E17.06581
G1 X109.004 Y123.412 E17.07989
G1 X101.344 Y131.071 E17.44655
G1 X101.278 Y131.18 E17.45086
;WIDTH:0.41646
G1 X101.212 Y131.288 E17.45479
;WIDTH:0.38292
G1 X101.446 Y131.308 E17.46143
;WIDTH:0.449999
G1 X101.835 Y131.156 E17.47557
G1 X109.323 Y123.668 E17.83402
G1 X109.744 Y123.823 E17.84921
G1 X102.411 Y131.156 E18.20024
G1 X102.987 Y131.156 E18.21974
G1 X110.298 Y123.844 E18.56974
G1 X110.874 Y123.844 E18.58924
G1 X103.563 Y131.156 E18.93924
G1 X104.138 Y131.156 E18.9587
G1 X111.449 Y123.844 E19.3087
G1 X112.025 Y123.844 E19.3282
G1 X104.714 Y131.156 E19.6782
G1 X105.29 Y131.156 E19.6977
G1 X112.601 Y123.844 E20.0477
G1 X113.176 Y123.844 E20.06716
G1 X105.865 Y131.156 E20.41716
G1 X106.441 Y131.156 E20.43666
G1 X113.752 Y123.844 E20.78666
G1 X114.328 Y123.844 E20.80616
G1 X107.017 Y131.156 E21.15616
G1 X107.592 Y131.156 E21.17562
G1 X114.903 Y123.844 E21.52562
G1 X115.479 Y123.844 E21.54512
G1 X108.168 Y131.156 E21.89512
G1 X108.744 Y131.156 E21.91462
G1 X116.055 Y123.844 E22.26462
G1 X116.631 Y123.844 E22.28412
G1 X109.32 Y131.156 E22.63412
G1 X109.895 Y131.156 E22.65358
G1 X117.206 Y123.844 E23.00358
G1 X117.782 Y123.844 E23.02308
G1 X110.471 Y131.156 E23.37308
G1 X111.047 Y131.156 E23.39258
G1 X118.358 Y123.844 E23.74258
G1 X118.933 Y123.844 E23.76204
G1 X111.622 Y131.156 E24.11204
G1 X112.198 Y131.156 E24.13154
G1 X119.509 Y123.844 E24.48154
G1 X120.085 Y123.844 E24.50104
G1 X112.774 Y131.156 E24.85104
G1 X113.349 Y131.156 E24.8705
G1 X120.66 Y123.844 E25.2205
G1 X121.236 Y123.844 E25.24
G1 X113.925 Y131.156 E25.59
G1 X114.501 Y131.156 E25.6095
G1 X121.812 Y123.844 E25.9595
G1 X122.388 Y123.844 E25.979
G1 X115.076 Y131.156 E26.32902
G1 X115.652 Y131.156 E26.34852
G1 X122.963 Y123.844 E26.69852
G1 X123.539 Y123.844 E26.71802
G1 X116.228 Y131.156 E27.06802
G1 X116.804 Y131.156 E27.08752
G1 X124.115 Y123.844 E27.43752
G1 X124.69 Y123.844 E27.45698
G1 X117.379 Y131.156 E27.80698
G1 X117.955 Y131.156 E27.82648
G1 X125.266 Y123.844 E28.17648
G1 X125.842 Y123.844 E28.19598
G1 X118.531 Y131.156 E28.54598
G1 X119.106 Y131.156 E28.56544
G1 X126.417 Y123.844 E28.91544
